;FLAVOR:Marlin
;TIME:1121
;Filament used: 0.605102m
;Layer height: 0.2
;MINX:83.616
;MINY:91.082
;MINZ:0.12
;MAXX:136.381
;MAXY:128.503
;MAXZ:14.92
;TARGET_MACHINE.NAME:Creality Ender-3 V3 SE
;Generated with Cura_SteamEngine 5.7.1
M82 ;absolute extrusion mode
M220 S100 ;Reset Feedrate
M221 S100 ;Reset Flowrate

G28 ;Home

M420 S1; Use saved mesh leveling data

G92 E0 ;Reset Extruder
G1 Z2.0 F3000 ;Move Z Axis up
G1 X-3 Y20 Z0.28 F5000.0 ;Move to start position
M190 S60 ; Set bed temperature and wait
M109 S210 ; Set hotend temperature and wait
G1 X-3 Y100.0 Z0.28 F1500.0 E15 ;Draw the first line
G1 X-2 Y100.0 Z0.28 F5000.0 ;Move to side a little
G1 X-2 Y20 Z0.28 F1500.0 E30 ;Draw the second line
G92 E0 ;Reset Extruder
G1 E-1.0000 F1800 ;Retract a bit
G1 Z2.0 F3000 ;Move Z Axis up
G1 E0.0000 F1800 

G92 E0
G92 E0
G1 F2400 E-0.8
;LAYER_COUNT:75
;LAYER:0
M107
G0 F9000 X88.391 Y94.813 Z0.12
;TYPE:SKIRT
G1 F2400 E0
G1 F1800 X89.105 Y94.15 E0.01944
G1 X89.875 Y93.553 E0.03889
G1 X90.694 Y93.026 E0.05832
G1 X91.555 Y92.575 E0.07772
G1 X92.417 Y92.214 E0.09637
G1 X93.137 Y91.976 E0.1115
G1 X94.069 Y91.704 E0.13088
G1 X95.046 Y91.442 E0.15106
G1 X95.999 Y91.237 E0.17052
G1 X96.964 Y91.117 E0.18992
G1 X97.931 Y91.082 E0.20923
G1 X98.692 Y91.115 E0.22443
G1 X99.547 Y91.183 E0.24155
G1 X100.565 Y91.278 E0.26195
G1 X104.098 Y91.495 E0.33259
G1 X106.118 Y91.585 E0.37294
G1 X108.721 Y91.661 E0.42491
G1 X111.183 Y91.663 E0.47404
G1 X114.428 Y91.561 E0.53883
G1 X115.442 Y91.514 E0.55909
G1 X117.91 Y91.436 E0.60837
G1 X120.464 Y91.285 E0.65942
G1 X121.338 Y91.219 E0.67691
G1 X122.24 Y91.191 E0.69492
G1 X123.282 Y91.25 E0.71575
G1 X124.176 Y91.382 E0.73378
G1 X124.909 Y91.546 E0.74877
G1 X126.202 Y91.889 E0.77547
G1 X126.928 Y92.105 E0.79059
G1 X127.847 Y92.426 E0.81001
G1 X128.735 Y92.827 E0.82946
G1 X129.584 Y93.305 E0.8489
G1 X130.386 Y93.855 E0.86831
G1 X131.134 Y94.47 E0.88763
G1 X131.677 Y94.995 E0.9027
G1 X132.558 Y95.91 E0.92805
G1 X133.037 Y96.43 E0.94216
G1 X133.662 Y97.176 E0.96158
G1 X134.218 Y97.974 E0.98099
G1 X134.704 Y98.819 E1.00044
G1 X135.113 Y99.705 E1.01992
G1 X135.45 Y100.651 E1.03996
G1 X135.788 Y101.77 E1.06329
G1 X135.996 Y102.532 E1.07905
G1 X136.208 Y103.482 E1.09847
G1 X136.338 Y104.447 E1.1179
G1 X136.381 Y105.349 E1.13593
G1 X136.355 Y106.224 E1.15339
G1 X136.255 Y107.258 E1.17413
G1 X135.988 Y108.564 E1.20073
G1 X135.645 Y109.822 E1.22675
G1 X135.436 Y110.526 E1.2414
G1 X135.115 Y111.447 E1.26087
G1 X134.713 Y112.333 E1.28028
G1 X134.234 Y113.181 E1.29972
G1 X133.675 Y113.994 E1.31941
G1 X132.843 Y114.971 E1.34502
G1 X131.96 Y115.885 E1.37038
G1 X131.452 Y116.385 E1.3846
G1 X130.575 Y117.158 E1.40793
G1 X129.84 Y117.737 E1.42661
G1 X129 Y118.38 E1.44772
G1 X127.051 Y119.96 E1.49779
G1 X125.131 Y121.606 E1.54825
G1 X123.207 Y123.354 E1.60013
G1 X122.555 Y123.961 E1.61791
G1 X122.067 Y124.392 E1.6309
G1 X121.424 Y124.918 E1.64748
G1 X120.864 Y125.337 E1.66143
G1 X120.566 Y125.545 E1.66869
G1 X120.033 Y125.892 E1.68138
G1 X119.344 Y126.301 E1.69737
G1 X118.98 Y126.5 E1.70565
G1 X118.274 Y126.855 E1.72142
G1 X117.807 Y127.067 E1.73165
G1 X117.117 Y127.354 E1.74657
G1 X116.761 Y127.486 E1.75414
G1 X116.025 Y127.732 E1.76963
G1 X115.529 Y127.877 E1.77994
G1 X114.779 Y128.066 E1.79538
G1 X114.295 Y128.169 E1.80525
G1 X113.368 Y128.326 E1.82401
G1 X112.829 Y128.392 E1.83485
G1 X111.746 Y128.47 E1.85652
G1 X110.171 Y128.503 E1.88796
G1 X108.692 Y128.492 E1.91747
G1 X107.885 Y128.457 E1.93359
G1 X107.137 Y128.389 E1.94858
G1 X106.611 Y128.323 E1.95916
G1 X105.803 Y128.188 E1.97551
G1 X105.316 Y128.088 E1.98543
G1 X104.378 Y127.849 E2.00475
G1 X103.684 Y127.636 E2.01923
G1 X102.769 Y127.309 E2.03862
G1 X102.359 Y127.141 E2.04747
G1 X101.71 Y126.848 E2.06168
G1 X101.276 Y126.635 E2.07132
G1 X100.55 Y126.241 E2.08781
G1 X100.076 Y125.961 E2.0988
G1 X99.212 Y125.391 E2.11945
G1 X98.818 Y125.102 E2.1292
G1 X98.344 Y124.734 E2.14118
G1 X97.758 Y124.239 E2.15649
G1 X97.197 Y123.729 E2.17162
G1 X95.611 Y122.225 E2.21523
G1 X93.699 Y120.512 E2.26646
G1 X91.774 Y118.882 E2.3168
G1 X90.526 Y117.874 E2.34882
G1 X89.45 Y117.021 E2.37622
G1 X88.579 Y116.245 E2.3995
G1 X87.594 Y115.256 E2.42735
G1 X87.108 Y114.744 E2.44144
G1 X86.494 Y114.034 E2.46017
G1 X85.904 Y113.216 E2.4803
G1 X85.424 Y112.408 E2.49905
G1 X85.001 Y111.528 E2.51854
G1 X84.632 Y110.536 E2.53966
G1 X84.4 Y109.782 E2.5554
G1 X84.041 Y108.501 E2.58195
G1 X83.824 Y107.557 E2.60128
G1 X83.706 Y106.747 E2.61762
G1 X83.675 Y106.443 E2.62372
G1 X83.616 Y105.472 E2.64313
G1 X83.639 Y104.569 E2.66116
G1 X83.76 Y103.521 E2.68221
G1 X84.021 Y102.336 E2.70642
G1 X84.337 Y101.221 E2.72955
G1 X84.557 Y100.501 E2.74457
G1 X84.886 Y99.585 E2.764
G1 X85.262 Y98.765 E2.782
G1 X85.782 Y97.856 E2.8029
G1 X86.342 Y97.057 E2.82237
G1 X86.999 Y96.278 E2.84271
G1 X87.887 Y95.326 E2.86869
G1 X88.391 Y94.813 E2.88304
G0 F9000 X88.664 Y95.106
G1 F1800 X89.351 Y94.466 E2.90177
G1 X90.092 Y93.889 E2.92052
G1 X90.88 Y93.38 E2.93924
G1 X91.71 Y92.944 E2.95795
G1 X92.543 Y92.594 E2.97598
G1 X93.249 Y92.36 E2.99082
G1 X94.173 Y92.09 E3.01003
G1 X95.131 Y91.833 E3.02983
G1 X96.049 Y91.634 E3.04857
G1 X96.979 Y91.517 E3.06728
G1 X97.914 Y91.482 E3.08595
G1 X98.661 Y91.514 E3.10087
G1 X99.51 Y91.581 E3.11786
G1 X100.536 Y91.677 E3.13843
G1 X104.08 Y91.895 E3.20929
G1 X106.1 Y91.985 E3.24964
G1 X108.709 Y92.061 E3.30173
G1 X111.196 Y92.063 E3.35136
G1 X114.447 Y91.961 E3.41627
G1 X115.455 Y91.914 E3.4364
G1 X117.923 Y91.836 E3.48568
G1 X120.494 Y91.684 E3.53708
G1 X121.35 Y91.619 E3.55421
G1 X122.252 Y91.591 E3.57222
G1 X123.224 Y91.646 E3.59164
G1 X124.118 Y91.778 E3.60968
G1 X124.807 Y91.933 E3.62377
G1 X126.088 Y92.272 E3.65022
G1 X126.797 Y92.483 E3.66498
G1 X127.683 Y92.791 E3.6837
G1 X128.539 Y93.176 E3.70243
G1 X129.358 Y93.635 E3.72116
G1 X130.132 Y94.164 E3.73987
G1 X130.856 Y94.758 E3.75856
G1 X131.389 Y95.272 E3.77334
G1 X132.264 Y96.181 E3.79852
G1 X132.731 Y96.687 E3.81226
G1 X133.334 Y97.405 E3.83097
G1 X133.872 Y98.174 E3.8497
G1 X134.341 Y98.987 E3.86843
G1 X134.736 Y99.84 E3.88719
G1 X135.067 Y100.767 E3.90683
G1 X135.402 Y101.876 E3.92995
G1 X135.606 Y102.62 E3.94534
G1 X135.812 Y103.536 E3.96408
G1 X135.938 Y104.466 E3.98281
G1 X135.981 Y105.368 E4.00083
G1 X135.955 Y106.212 E4.01768
G1 X135.863 Y107.178 E4.03705
G1 X135.602 Y108.459 E4.06314
G1 X135.262 Y109.708 E4.08897
G1 X135.058 Y110.395 E4.10327
G1 X134.75 Y111.282 E4.12201
G1 X134.364 Y112.137 E4.14073
G1 X133.904 Y112.955 E4.15946
G1 X133.37 Y113.735 E4.17832
G1 X132.538 Y114.712 E4.20393
G1 X131.679 Y115.6 E4.22858
G1 X131.187 Y116.085 E4.24237
G1 X130.327 Y116.844 E4.26526
G1 X129.597 Y117.419 E4.28381
G1 X128.757 Y118.062 E4.30492
G1 X126.799 Y119.649 E4.35521
G1 X124.871 Y121.302 E4.40589
G1 X122.938 Y123.058 E4.45801
G1 X122.29 Y123.661 E4.47567
G1 X121.802 Y124.092 E4.48867
G1 X121.184 Y124.598 E4.50461
G1 X120.635 Y125.009 E4.51829
G1 X120.347 Y125.21 E4.5253
G1 X119.829 Y125.548 E4.53764
G1 X119.151 Y125.95 E4.55337
G1 X118.8 Y126.143 E4.56137
G1 X118.108 Y126.491 E4.57683
G1 X117.653 Y126.698 E4.5868
G1 X116.978 Y126.979 E4.60139
G1 X116.634 Y127.107 E4.60872
G1 X115.913 Y127.348 E4.62389
G1 X115.431 Y127.489 E4.63391
G1 X114.695 Y127.675 E4.64906
G1 X114.228 Y127.775 E4.65859
G1 X113.319 Y127.929 E4.67699
G1 X112.8 Y127.993 E4.68742
G1 X111.738 Y128.07 E4.70867
G1 X110.174 Y128.103 E4.73989
G1 X108.709 Y128.092 E4.76913
G1 X107.902 Y128.057 E4.78525
G1 X107.187 Y127.992 E4.79957
G1 X106.677 Y127.928 E4.80983
G1 X105.883 Y127.796 E4.82589
G1 X105.415 Y127.7 E4.83543
G1 X104.477 Y127.461 E4.85475
G1 X103.818 Y127.259 E4.8685
G1 X102.921 Y126.939 E4.88751
G1 X102.523 Y126.776 E4.89609
G1 X101.886 Y126.489 E4.91003
G1 X101.466 Y126.283 E4.91937
G1 X100.753 Y125.897 E4.93555
G1 X100.296 Y125.627 E4.94614
G1 X99.448 Y125.068 E4.96641
G1 X99.063 Y124.786 E4.97593
G1 X98.602 Y124.429 E4.98757
G1 X98.027 Y123.943 E5.00259
G1 X97.472 Y123.439 E5.01755
G1 X95.878 Y121.927 E5.0614
G1 X93.966 Y120.214 E5.11263
G1 X92.032 Y118.577 E5.16319
G1 X90.777 Y117.563 E5.19539
G1 X89.716 Y116.722 E5.22241
G1 X88.845 Y115.946 E5.24569
G1 X87.884 Y114.981 E5.27287
G1 X87.411 Y114.482 E5.28659
G1 X86.797 Y113.772 E5.30532
G1 X86.248 Y113.011 E5.32404
G1 X85.785 Y112.235 E5.34208
G1 X85.362 Y111.355 E5.36156
G1 X85.007 Y110.397 E5.38195
G1 X84.785 Y109.674 E5.39704
G1 X84.431 Y108.411 E5.42322
G1 X84.22 Y107.499 E5.4419
G1 X84.104 Y106.705 E5.45791
G1 X84.074 Y106.418 E5.46367
G1 X84.016 Y105.482 E5.48239
G1 X84.039 Y104.579 E5.50041
G1 X84.151 Y103.607 E5.51994
G1 X84.406 Y102.445 E5.54368
G1 X84.719 Y101.338 E5.56664
G1 X84.934 Y100.636 E5.58129
G1 X85.25 Y99.752 E5.60002
G1 X85.626 Y98.932 E5.61803
G1 X86.11 Y98.085 E5.63749
G1 X86.648 Y97.315 E5.65624
G1 X87.292 Y96.551 E5.67618
G1 X88.18 Y95.599 E5.70216
G1 X88.664 Y95.106 E5.71595
G0 F9000 X88.937 Y95.398
G1 F1800 X89.597 Y94.781 E5.73398
G1 X90.309 Y94.225 E5.752
G1 X91.067 Y93.734 E5.77003
G1 X91.865 Y93.313 E5.78803
G1 X92.698 Y92.963 E5.80606
G1 X93.361 Y92.744 E5.82
G1 X94.277 Y92.476 E5.83904
G1 X95.216 Y92.224 E5.85845
G1 X96.099 Y92.031 E5.87648
G1 X96.995 Y91.917 E5.89451
G1 X97.897 Y91.882 E5.91252
G1 X98.63 Y91.913 E5.92716
G1 X99.473 Y91.979 E5.94404
G1 X100.507 Y92.076 E5.96476
G1 X104.062 Y92.295 E6.03584
G1 X106.082 Y92.385 E6.07619
G1 X108.697 Y92.461 E6.1284
G1 X111.209 Y92.463 E6.17853
G1 X114.466 Y92.361 E6.24356
G1 X115.468 Y92.314 E6.26357
G1 X117.936 Y92.236 E6.31285
G1 X120.524 Y92.083 E6.36459
G1 X121.362 Y92.019 E6.38136
G1 X122.264 Y91.991 E6.39937
G1 X123.166 Y92.042 E6.4174
G1 X124.06 Y92.174 E6.43543
G1 X124.705 Y92.32 E6.44863
G1 X125.974 Y92.656 E6.47483
G1 X126.666 Y92.861 E6.48923
G1 X127.52 Y93.156 E6.50726
G1 X128.344 Y93.525 E6.52528
G1 X129.133 Y93.965 E6.54331
G1 X129.879 Y94.474 E6.56133
G1 X130.578 Y95.046 E6.57935
G1 X131.101 Y95.55 E6.59385
G1 X131.97 Y96.452 E6.61884
G1 X132.425 Y96.945 E6.63223
G1 X133.007 Y97.635 E6.65024
G1 X133.526 Y98.374 E6.66826
G1 X133.978 Y99.156 E6.68629
G1 X134.359 Y99.975 E6.70432
G1 X134.684 Y100.883 E6.72356
G1 X135.016 Y101.982 E6.74647
G1 X135.216 Y102.709 E6.76152
G1 X135.416 Y103.59 E6.77955
G1 X135.538 Y104.485 E6.79757
G1 X135.581 Y105.387 E6.81559
G1 X135.555 Y106.199 E6.83181
G1 X135.471 Y107.098 E6.84983
G1 X135.216 Y108.354 E6.8754
G1 X134.879 Y109.594 E6.90105
G1 X134.68 Y110.264 E6.91499
G1 X134.385 Y111.118 E6.93302
G1 X134.015 Y111.942 E6.95105
G1 X133.574 Y112.73 E6.96907
G1 X133.065 Y113.476 E6.98709
G1 X132.25 Y114.434 E7.01219
G1 X131.398 Y115.315 E7.03665
G1 X130.922 Y115.785 E7.05
G1 X130.062 Y116.544 E7.07289
G1 X129.354 Y117.101 E7.09087
G1 X128.514 Y117.744 E7.11198
G1 X126.547 Y119.338 E7.1625
G1 X124.611 Y120.998 E7.21339
G1 X122.669 Y122.762 E7.26575
G1 X122.025 Y123.361 E7.2833
G1 X121.548 Y123.783 E7.29601
G1 X120.944 Y124.278 E7.3116
G1 X120.406 Y124.681 E7.32501
G1 X120.128 Y124.875 E7.33178
G1 X119.625 Y125.204 E7.34377
G1 X118.958 Y125.6 E7.35925
G1 X118.62 Y125.786 E7.36695
G1 X117.942 Y126.127 E7.38209
G1 X117.5 Y126.329 E7.39179
G1 X116.838 Y126.604 E7.4061
G1 X116.507 Y126.728 E7.41315
G1 X115.8 Y126.964 E7.42803
G1 X115.333 Y127.101 E7.43774
G1 X114.611 Y127.284 E7.4526
G1 X114.161 Y127.381 E7.46179
G1 X113.27 Y127.532 E7.47982
G1 X112.771 Y127.594 E7.48986
G1 X111.73 Y127.67 E7.51069
G1 X110.177 Y127.703 E7.54169
G1 X108.726 Y127.692 E7.57064
G1 X107.919 Y127.657 E7.58676
G1 X107.237 Y127.595 E7.60043
G1 X106.742 Y127.533 E7.61038
G1 X105.963 Y127.404 E7.62614
G1 X105.514 Y127.312 E7.63529
G1 X104.576 Y127.073 E7.6546
G1 X103.952 Y126.882 E7.66763
G1 X103.073 Y126.569 E7.68625
G1 X102.687 Y126.411 E7.69457
G1 X102.062 Y126.13 E7.70825
G1 X101.656 Y125.931 E7.71727
G1 X100.956 Y125.553 E7.73315
G1 X100.516 Y125.293 E7.74334
G1 X99.684 Y124.745 E7.76323
G1 X99.308 Y124.47 E7.77252
G1 X98.86 Y124.123 E7.78383
G1 X98.296 Y123.647 E7.79856
G1 X97.747 Y123.149 E7.81335
G1 X96.145 Y121.629 E7.85742
G1 X94.233 Y119.916 E7.90865
G1 X92.29 Y118.272 E7.95944
G1 X91.028 Y117.252 E7.99182
G1 X89.982 Y116.423 E8.01846
G1 X89.111 Y115.647 E8.04174
G1 X88.174 Y114.706 E8.06824
G1 X87.713 Y114.22 E8.08161
G1 X87.121 Y113.538 E8.09963
G1 X86.592 Y112.806 E8.11765
G1 X86.129 Y112.03 E8.13569
G1 X85.737 Y111.216 E8.15372
G1 X85.382 Y110.258 E8.1741
G1 X85.17 Y109.566 E8.18855
G1 X84.821 Y108.32 E8.21437
G1 X84.616 Y107.441 E8.23238
G1 X84.502 Y106.662 E8.24809
G1 X84.473 Y106.393 E8.25349
G1 X84.416 Y105.492 E8.27151
G1 X84.439 Y104.589 E8.28953
G1 X84.542 Y103.692 E8.30755
G1 X84.791 Y102.554 E8.3308
G1 X85.101 Y101.455 E8.35359
G1 X85.311 Y100.77 E8.36789
G1 X85.614 Y99.919 E8.38591
G1 X85.99 Y99.099 E8.40391
G1 X86.438 Y98.314 E8.42195
G1 X86.954 Y97.573 E8.43997
G1 X87.585 Y96.824 E8.45952
G1 X88.466 Y95.879 E8.4853
G1 X88.937 Y95.398 E8.49873
G1 F2400 E7.69873
G0 F9000 X96.327 Y102.703
G1 F2400 E8.49873
G1 F1800 X97.837 Y102.279 E8.53003
G1 X99.347 Y102.703 E8.56133
G1 X100.442 Y103.857 E8.59308
G1 X100.864 Y105.302 E8.62312
G1 X100.419 Y106.906 E8.65634
G1 X99.334 Y108.008 E8.6872
G1 X97.837 Y108.437 E8.71828
G1 X96.403 Y108.011 E8.74813
G1 X95.255 Y106.841 E8.78084
G1 X94.811 Y105.302 E8.8128
G1 X95.232 Y103.857 E8.84284
G1 X96.327 Y102.703 E8.87459
G0 F9000 X96.541 Y103.058
G1 F1800 X97.837 Y102.694 E8.90145
G1 X99.133 Y103.058 E8.92831
G1 X100.085 Y104.061 E8.95591
G1 X100.448 Y105.306 E8.98179
G1 X100.062 Y106.698 E9.01062
G1 X99.123 Y107.652 E9.03733
G1 X97.838 Y108.02 E9.06401
G1 X96.616 Y107.657 E9.08945
G1 X95.612 Y106.635 E9.11804
G1 X95.228 Y105.302 E9.14572
G1 X95.589 Y104.061 E9.17151
G1 X96.541 Y103.058 E9.19911
G0 F9000 X96.755 Y103.414
G1 F1800 X97.837 Y103.11 E9.22154
G1 X98.919 Y103.414 E9.24396
G1 X99.728 Y104.266 E9.26741
G1 X100.032 Y105.308 E9.28907
G1 X99.703 Y106.492 E9.3136
G1 X98.91 Y107.297 E9.33615
G1 X97.841 Y107.603 E9.35834
G1 X96.829 Y107.302 E9.37941
G1 X95.968 Y106.426 E9.40392
G1 X95.644 Y105.303 E9.42724
G1 X95.947 Y104.265 E9.44882
G1 X96.755 Y103.414 E9.47224
G0 F9000 X96.971 Y103.768
G1 F1800 X97.837 Y103.525 E9.49019
G1 X98.703 Y103.768 E9.50814
G1 X99.371 Y104.473 E9.52752
G1 X99.616 Y105.311 E9.54494
G1 X99.346 Y106.285 E9.56511
G1 X98.701 Y106.94 E9.58346
G1 X97.842 Y107.186 E9.60129
G1 X97.043 Y106.949 E9.61792
G1 X96.324 Y106.217 E9.6384
G1 X96.061 Y105.304 E9.65736
G1 X96.303 Y104.473 E9.67463
G1 X96.971 Y103.768 E9.69401
G0 F9000 X97.185 Y104.124
G1 F1800 X97.837 Y103.941 E9.70753
G1 X98.489 Y104.124 E9.72104
G1 X99.014 Y104.677 E9.73626
G1 X99.2 Y105.315 E9.74952
G1 X98.989 Y106.077 E9.7653
G1 X98.488 Y106.586 E9.77955
G1 X97.844 Y106.77 E9.79292
G1 X97.255 Y106.595 E9.80518
G1 X96.681 Y106.011 E9.82152
G1 X96.477 Y105.303 E9.83622
G1 X96.66 Y104.677 E9.84924
G1 X97.185 Y104.124 E9.86446
G0 F9000 X97.398 Y104.479
G1 F1800 X97.837 Y104.356 E9.87355
G1 X98.276 Y104.479 E9.88265
G1 X98.657 Y104.881 E9.8937
G1 X98.784 Y105.317 E9.90277
G1 X98.631 Y105.871 E9.91424
G1 X98.277 Y106.23 E9.9243
G1 X97.846 Y106.353 E9.93324
G1 X97.468 Y106.241 E9.94111
G1 X97.037 Y105.802 E9.95339
G1 X96.893 Y105.305 E9.96371
G1 X97.017 Y104.882 E9.97251
G1 X97.398 Y104.479 E9.98358
G0 F9000 X97.612 Y104.835
G1 F1800 X97.837 Y104.771 E9.98825
G1 X98.062 Y104.835 E9.99291
G1 X98.3 Y105.085 E9.9998
G1 X98.369 Y105.321 E10.00471
G1 X98.273 Y105.664 E10.01182
G1 X98.066 Y105.875 E10.01772
G1 X97.849 Y105.937 E10.02222
G1 X97.682 Y105.887 E10.0257
G1 X97.392 Y105.593 E10.03394
G1 X97.31 Y105.306 E10.0399
G1 X97.374 Y105.086 E10.04447
G1 X97.612 Y104.835 E10.05137
G0 F9000 X97.827 Y105.189
G1 F1800 X97.837 Y105.187 E10.05157
G1 X97.847 Y105.189 E10.05178
G1 X97.943 Y105.291 E10.05457
G1 X97.952 Y105.322 E10.05522
G1 X97.915 Y105.458 E10.05803
G1 X97.867 Y105.506 E10.05938
G1 X97.75 Y105.387 E10.06271
G1 X97.727 Y105.305 E10.06441
G1 X97.731 Y105.291 E10.0647
G1 X97.827 Y105.189 E10.0675
G1 F2400 E9.2675
G0 F9000 X101.612 Y101.842
G0 X118.386 Y101.842
G0 X119.128 Y105.422
G1 F2400 E10.0675
G1 F1800 X119.552 Y103.964 E10.0978
G1 X120.647 Y102.81 E10.12955
G1 X122.157 Y102.386 E10.16085
G1 X123.667 Y102.81 E10.19215
G1 X124.762 Y103.964 E10.22389
