;FLAVOR:Marlin
;TIME:146
;Filament used: 0.116854m
;Layer height: 0.2
;MINX:88
;MINY:93
;MINZ:0.12
;MAXX:132
;MAXY:127
;MAXZ:0.92
;TARGET_MACHINE.NAME:Creality Ender-3 V3 SE
;Generated with Cura_SteamEngine 5.7.1
M82 ;absolute extrusion mode
M220 S100 ;Reset Feedrate
M221 S100 ;Reset Flowrate

G28 ;Home

M420 S1; Use saved mesh leveling data

G92 E0 ;Reset Extruder
G1 Z2.0 F3000 ;Move Z Axis up
G1 X-3 Y20 Z0.28 F5000.0 ;Move to start position
M190 S60 ; Set bed temperature and wait
M109 S210 ; Set hotend temperature and wait
G1 X-3 Y100.0 Z0.28 F1500.0 E15 ;Draw the first line
G1 X-2 Y100.0 Z0.28 F5000.0 ;Move to side a little
G1 X-2 Y20 Z0.28 F1500.0 E30 ;Draw the second line
G92 E0 ;Reset Extruder
G1 E-1.0000 F1800 ;Retract a bit
G1 Z2.0 F3000 ;Move Z Axis up
G1 E0.0000 F1800 

G92 E0
G92 E0
G1 F2400 E-0.8
;LAYER_COUNT:5
;LAYER:0
M107
G0 F9000 X92.215 Y96.449 Z0.12
;TYPE:SKIRT
G1 F2400 E0
G1 F1800 X92.604 Y96.105 E0.01036
G1 X93.362 Y95.495 E0.02978
G1 X94.163 Y94.958 E0.04902
G1 X94.744 Y94.628 E0.06236
G1 X95.145 Y94.417 E0.0714
G1 X95.962 Y94.032 E0.08942
G1 X96.874 Y93.688 E0.10888
G1 X97.918 Y93.388 E0.13055
G1 X98.946 Y93.193 E0.15143
G1 X99.486 Y93.118 E0.16231
G1 X100.768 Y93.019 E0.18797
G1 X101.89 Y93 E0.21037
G1 X118.461 Y93 E0.54106
G1 X119.294 Y93.012 E0.55769
G1 X120.224 Y93.066 E0.57628
G1 X120.893 Y93.154 E0.58974
G1 X121.288 Y93.22 E0.59773
G1 X122.266 Y93.43 E0.61769
G1 X123.419 Y93.798 E0.64185
G1 X123.895 Y93.981 E0.65202
G1 X124.755 Y94.357 E0.67076
G1 X125.634 Y94.836 E0.69073
G1 X126.195 Y95.2 E0.70408
G1 X126.601 Y95.482 E0.71394
G1 X127.387 Y96.084 E0.7337
G1 X128.099 Y96.734 E0.75294
G1 X128.534 Y97.195 E0.76559
G1 X128.895 Y97.604 E0.77647
G1 X129.505 Y98.36 E0.79586
G1 X130.01 Y99.109 E0.81389
G1 X130.377 Y99.755 E0.82871
G1 X130.587 Y100.156 E0.83775
G1 X130.972 Y100.974 E0.85579
G1 X131.312 Y101.875 E0.87501
G1 X131.612 Y102.918 E0.89667
G1 X131.806 Y103.936 E0.91735
G1 X131.881 Y104.473 E0.92817
G1 X131.981 Y105.761 E0.95395
G1 X132 Y106.883 E0.97634
G1 X131.999 Y113.573 E1.10985
G1 X131.988 Y114.288 E1.12412
G1 X131.932 Y115.248 E1.14331
G1 X131.847 Y115.888 E1.15619
G1 X131.781 Y116.284 E1.1642
G1 X131.571 Y117.262 E1.18417
G1 X131.206 Y118.407 E1.20815
G1 X131.024 Y118.883 E1.21832
G1 X130.635 Y119.774 E1.23772
G1 X130.204 Y120.568 E1.25575
G1 X129.814 Y121.173 E1.27011
G1 X129.525 Y121.592 E1.28027
G1 X128.934 Y122.367 E1.29972
G1 X128.307 Y123.058 E1.31834
G1 X127.769 Y123.566 E1.33311
G1 X127.376 Y123.912 E1.34356
G1 X126.615 Y124.521 E1.36301
G1 X125.816 Y125.054 E1.38217
G1 X125.255 Y125.372 E1.39504
G1 X124.856 Y125.582 E1.40404
G1 X124.039 Y125.967 E1.42207
G1 X123.127 Y126.311 E1.44152
G1 X122.082 Y126.612 E1.46322
G1 X121.054 Y126.807 E1.4841
G1 X120.514 Y126.882 E1.49498
G1 X119.232 Y126.981 E1.52064
G1 X118.096 Y127 E1.54331
G1 X101.398 Y126.999 E1.87654
G1 X100.707 Y126.988 E1.89033
G1 X99.775 Y126.934 E1.90896
G1 X99.112 Y126.847 E1.92231
G1 X98.716 Y126.781 E1.93032
G1 X97.738 Y126.571 E1.95028
G1 X96.589 Y126.204 E1.97435
G1 X96.111 Y126.021 E1.98456
G1 X95.25 Y125.646 E2.0033
G1 X94.372 Y125.169 E2.02324
G1 X93.798 Y124.796 E2.03691
G1 X93.394 Y124.515 E2.04673
G1 X92.608 Y123.912 E2.0665
G1 X91.897 Y123.262 E2.08572
G1 X91.468 Y122.808 E2.09819
G1 X91.106 Y122.398 E2.1091
G1 X90.496 Y121.641 E2.1285
G1 X89.975 Y120.866 E2.14714
G1 X89.623 Y120.245 E2.16138
G1 X89.413 Y119.844 E2.17042
G1 X89.028 Y119.026 E2.18846
G1 X88.688 Y118.125 E2.20768
G1 X88.388 Y117.082 E2.22933
G1 X88.194 Y116.064 E2.25001
G1 X88.119 Y115.526 E2.26085
G1 X88.019 Y114.233 E2.28674
G1 X88 Y113.091 E2.30953
G1 X88.001 Y106.393 E2.44319
G1 X88.012 Y105.706 E2.45691
G1 X88.066 Y104.775 E2.47552
G1 X88.153 Y104.112 E2.48886
G1 X88.219 Y103.716 E2.49687
G1 X88.429 Y102.738 E2.51683
G1 X88.787 Y101.611 E2.54043
G1 X88.965 Y101.145 E2.55039
G1 X89.353 Y100.254 E2.56978
G1 X89.812 Y99.407 E2.58901
G1 X90.169 Y98.851 E2.60219
G1 X90.446 Y98.448 E2.61195
G1 X91.056 Y97.645 E2.63207
G1 X91.662 Y96.975 E2.6501
G1 X92.215 Y96.449 E2.66533
G0 F9000 X92.481 Y96.748
G1 F1800 X92.855 Y96.416 E2.67531
G1 X93.585 Y95.827 E2.69403
G1 X94.36 Y95.306 E2.71267
G1 X94.931 Y94.982 E2.72577
G1 X95.316 Y94.779 E2.73445
G1 X96.133 Y94.394 E2.75248
G1 X96.985 Y94.072 E2.77065
G1 X97.993 Y93.781 E2.79159
G1 X99.001 Y93.589 E2.81207
G1 X99.517 Y93.517 E2.82247
G1 X100.775 Y93.419 E2.84765
G1 X101.897 Y93.4 E2.87004
G1 X118.456 Y93.4 E3.20049
G1 X119.271 Y93.411 E3.21676
G1 X120.172 Y93.463 E3.23477
G1 X120.828 Y93.549 E3.24797
G1 X121.205 Y93.611 E3.2556
G1 X122.145 Y93.811 E3.27478
G1 X123.275 Y94.171 E3.29844
G1 X123.735 Y94.348 E3.30828
G1 X124.595 Y94.724 E3.32701
G1 X125.416 Y95.171 E3.34567
G1 X125.967 Y95.529 E3.35878
G1 X126.358 Y95.8 E3.36827
G1 X127.118 Y96.38 E3.38735
G1 X127.808 Y97.009 E3.40598
G1 X128.243 Y97.47 E3.41863
G1 X128.584 Y97.855 E3.4289
G1 X129.173 Y98.584 E3.4476
G1 X129.678 Y99.333 E3.46563
G1 X130.023 Y99.941 E3.47958
G1 X130.225 Y100.326 E3.48825
G1 X130.61 Y101.144 E3.50629
G1 X130.928 Y101.986 E3.52426
G1 X131.219 Y102.993 E3.54517
G1 X131.41 Y103.992 E3.56547
G1 X131.482 Y104.504 E3.57579
G1 X131.581 Y105.768 E3.60109
G1 X131.6 Y106.883 E3.62335
G1 X131.599 Y113.567 E3.75673
G1 X131.589 Y114.265 E3.77066
G1 X131.535 Y115.196 E3.78927
G1 X131.452 Y115.823 E3.80189
G1 X131.39 Y116.201 E3.80954
G1 X131.19 Y117.141 E3.82872
G1 X130.833 Y118.264 E3.85223
G1 X130.657 Y118.723 E3.86204
G1 X130.283 Y119.583 E3.88076
G1 X129.852 Y120.377 E3.89879
G1 X129.485 Y120.946 E3.9123
G1 X129.206 Y121.35 E3.9221
G1 X128.638 Y122.098 E3.94084
G1 X128.011 Y122.789 E3.95946
G1 X127.505 Y123.266 E3.97334
G1 X127.125 Y123.6 E3.98343
G1 X126.393 Y124.188 E4.00217
G1 X125.618 Y124.706 E4.02077
G1 X125.069 Y125.018 E4.03337
G1 X124.685 Y125.22 E4.04203
G1 X123.868 Y125.605 E4.06006
G1 X123.016 Y125.927 E4.07823
G1 X122.007 Y126.219 E4.0992
G1 X120.999 Y126.411 E4.11967
G1 X120.483 Y126.483 E4.13007
G1 X119.225 Y126.581 E4.15525
G1 X118.096 Y126.6 E4.17778
G1 X101.404 Y126.599 E4.51089
G1 X100.73 Y126.589 E4.52434
G1 X99.798 Y126.535 E4.54297
G1 X99.177 Y126.452 E4.55548
G1 X98.799 Y126.39 E4.56312
G1 X97.859 Y126.19 E4.5823
G1 X96.732 Y125.831 E4.6059
G1 X96.271 Y125.654 E4.61576
G1 X95.41 Y125.279 E4.6345
G1 X94.59 Y124.833 E4.65313
G1 X94.026 Y124.467 E4.66654
G1 X93.637 Y124.197 E4.67599
G1 X92.878 Y123.617 E4.69506
G1 X92.188 Y122.987 E4.7137
G1 X91.759 Y122.533 E4.72617
G1 X91.417 Y122.147 E4.73646
G1 X90.828 Y121.417 E4.75518
G1 X90.323 Y120.668 E4.77321
G1 X89.977 Y120.059 E4.78718
G1 X89.775 Y119.674 E4.79586
G1 X89.39 Y118.856 E4.8139
G1 X89.072 Y118.014 E4.83186
G1 X88.781 Y117.007 E4.85278
G1 X88.59 Y116.008 E4.87308
G1 X88.518 Y115.495 E4.88342
G1 X88.419 Y114.226 E4.90882
G1 X88.4 Y113.091 E4.93147
G1 X88.401 Y106.399 E5.06502
G1 X88.411 Y105.729 E5.07839
G1 X88.465 Y104.798 E5.097
G1 X88.548 Y104.177 E5.1095
G1 X88.61 Y103.799 E5.11715
G1 X88.81 Y102.859 E5.13632
G1 X89.161 Y101.753 E5.15948
G1 X89.332 Y101.304 E5.16907
G1 X89.705 Y100.444 E5.18778
G1 X90.149 Y99.623 E5.2064
G1 X90.499 Y99.078 E5.21933
G1 X90.776 Y98.675 E5.22909
G1 X91.353 Y97.913 E5.24816
G1 X91.959 Y97.243 E5.26619
G1 X92.481 Y96.748 E5.28055
G0 F9000 X92.746 Y97.047
G1 F1800 X93.107 Y96.727 E5.29017
G1 X93.809 Y96.159 E5.30819
G1 X94.558 Y95.654 E5.32622
G1 X95.117 Y95.336 E5.33905
G1 X95.487 Y95.141 E5.3474
G1 X96.304 Y94.756 E5.36542
G1 X97.097 Y94.456 E5.38234
G1 X98.068 Y94.174 E5.40252
G1 X99.057 Y93.985 E5.42262
G1 X99.548 Y93.916 E5.43251
G1 X100.782 Y93.819 E5.45721
G1 X101.904 Y93.8 E5.47961
G1 X118.451 Y93.8 E5.80982
G1 X119.248 Y93.81 E5.82573
G1 X120.149 Y93.862 E5.84374
G1 X120.763 Y93.944 E5.8561
G1 X121.14 Y94.006 E5.86372
G1 X122.024 Y94.192 E5.88175
G1 X123.132 Y94.545 E5.90496
G1 X123.576 Y94.715 E5.91444
G1 X124.404 Y95.075 E5.93246
G1 X125.198 Y95.507 E5.9505
G1 X125.739 Y95.858 E5.96337
G1 X126.13 Y96.129 E5.97286
G1 X126.849 Y96.676 E5.99089
G1 X127.517 Y97.284 E6.00892
G1 X127.952 Y97.745 E6.02157
G1 X128.273 Y98.107 E6.03122
G1 X128.841 Y98.808 E6.04923
G1 X129.346 Y99.557 E6.06725
G1 X129.669 Y100.127 E6.08033
G1 X129.863 Y100.496 E6.08865
G1 X130.248 Y101.314 E6.10669
G1 X130.544 Y102.098 E6.12341
G1 X130.826 Y103.068 E6.14357
G1 X131.014 Y104.048 E6.16349
G1 X131.083 Y104.536 E6.17332
G1 X131.181 Y105.775 E6.19812
G1 X131.2 Y106.883 E6.22024
G1 X131.199 Y113.562 E6.35353
G1 X131.19 Y114.242 E6.3671
G1 X131.138 Y115.144 E6.38513
G1 X131.057 Y115.758 E6.39749
G1 X130.995 Y116.136 E6.40513
G1 X130.809 Y117.02 E6.42316
G1 X130.459 Y118.121 E6.44621
G1 X130.29 Y118.564 E6.45567
G1 X129.931 Y119.392 E6.47368
G1 X129.5 Y120.186 E6.49171
G1 X129.156 Y120.719 E6.50437
G1 X128.887 Y121.109 E6.51383
G1 X128.342 Y121.829 E6.53185
G1 X127.736 Y122.498 E6.54986
G1 X127.24 Y122.966 E6.56347
G1 X126.874 Y123.289 E6.57321
G1 X126.171 Y123.856 E6.59124
G1 X125.421 Y124.358 E6.60925
G1 X124.882 Y124.664 E6.62162
G1 X124.514 Y124.858 E6.62992
G1 X123.697 Y125.243 E6.64794
G1 X122.904 Y125.543 E6.66486
G1 X121.932 Y125.826 E6.68506
G1 X120.943 Y126.015 E6.70516
G1 X120.452 Y126.084 E6.71505
G1 X119.218 Y126.181 E6.73975
G1 X118.096 Y126.2 E6.76215
G1 X101.409 Y126.199 E7.09515
G1 X100.753 Y126.19 E7.10825
G1 X99.851 Y126.138 E7.12628
G1 X99.242 Y126.057 E7.13854
G1 X98.864 Y125.995 E7.14618
G1 X97.98 Y125.809 E7.16421
G1 X96.875 Y125.457 E7.18735
G1 X96.43 Y125.287 E7.19686
G1 X95.601 Y124.928 E7.21489
G1 X94.808 Y124.497 E7.2329
G1 X94.254 Y124.138 E7.24607
G1 X93.865 Y123.868 E7.25552
G1 X93.147 Y123.321 E7.27353
G1 X92.479 Y122.712 E7.29157
G1 X92.05 Y122.258 E7.30404
G1 X91.728 Y121.895 E7.31372
G1 X91.16 Y121.193 E7.33174
G1 X90.655 Y120.444 E7.34977
G1 X90.331 Y119.873 E7.36287
G1 X90.137 Y119.504 E7.37119
G1 X89.752 Y118.686 E7.38923
G1 X89.456 Y117.902 E7.40596
G1 X89.174 Y116.932 E7.42612
G1 X88.986 Y115.952 E7.44603
G1 X88.917 Y115.464 E7.45586
G1 X88.819 Y114.219 E7.48079
G1 X88.8 Y113.091 E7.5033
G1 X88.801 Y106.405 E7.63673
G1 X88.81 Y105.752 E7.64976
G1 X88.862 Y104.851 E7.66777
G1 X88.943 Y104.242 E7.68003
G1 X89.005 Y103.864 E7.68767
G1 X89.191 Y102.98 E7.7057
G1 X89.535 Y101.895 E7.72842
G1 X89.699 Y101.463 E7.73764
G1 X90.057 Y100.634 E7.75566
G1 X90.486 Y99.839 E7.77369
G1 X90.829 Y99.305 E7.78635
G1 X91.106 Y98.902 E7.79611
G1 X91.65 Y98.181 E7.81413
G1 X92.256 Y97.511 E7.83216
G1 X92.746 Y97.047 E7.84563
G1 F2400 E7.04563
;MESH:cartas.stl
G0 F9000 X98.415 Y105.343
G0 X99.42 Y105.875
G0 X100.2 Y114.243
G0 X100.853 Y114.996
;TYPE:WALL-INNER
G1 F2400 E7.84563
G1 F1800 X118.934 Y115 E8.20646
G1 X119.299 Y114.955 E8.21379
G1 X119.562 Y114.815 E8.21974
G1 X119.738 Y114.659 E8.22443
G1 X119.88 Y114.454 E8.22941
G1 X119.996 Y114.149 E8.23592
G1 X119.999 Y106.065 E8.39725
G1 X119.956 Y105.706 E8.40446
G1 X119.813 Y105.431 E8.41065
G1 X119.659 Y105.258 E8.41527
G1 X119.456 Y105.117 E8.4202
G1 X119.144 Y105 E8.42685
G1 X101.065 Y105 E8.78764
G1 X100.696 Y105.045 E8.79506
G1 X100.431 Y105.183 E8.80102
G1 X100.258 Y105.337 E8.80564
G1 X100.118 Y105.54 E8.81056
G1 X100.001 Y105.851 E8.81719
G1 X100.001 Y113.934 E8.9785
G1 X100.045 Y114.3 E8.98585
G1 X100.183 Y114.565 E8.99182
G1 X100.337 Y114.738 E8.99644
G1 X100.54 Y114.878 E9.00136
G1 X100.853 Y114.996 E9.00804
G0 F9000 X100.778 Y115.396
G1 F1800 X118.959 Y115.4 E9.37086
G1 X119.419 Y115.343 E9.38011
G1 X119.791 Y115.147 E9.3885
G1 X120.039 Y114.927 E9.39511
G1 X120.237 Y114.642 E9.40204
G1 X120.396 Y114.224 E9.41096
G1 X120.399 Y106.041 E9.57426
G1 X120.344 Y105.584 E9.58345
G1 X120.145 Y105.203 E9.59203
G1 X119.926 Y104.957 E9.5986
G1 X119.643 Y104.76 E9.60548
G1 X119.216 Y104.6 E9.61458
G1 X101.041 Y104.6 E9.97728
G1 X100.578 Y104.656 E9.98659
G1 X100.203 Y104.851 E9.99503
G1 X99.957 Y105.07 E10.0016
G1 X99.76 Y105.353 E10.00848
G1 X99.601 Y105.779 E10.01755
G1 X99.601 Y113.959 E10.18079
G1 X99.656 Y114.417 E10.19
G1 X99.851 Y114.793 E10.19845
G1 X100.07 Y115.039 E10.20503
G1 X100.353 Y115.236 E10.21191
G1 X100.778 Y115.396 E10.22097
G0 F9000 X100.85 Y115.796
;TYPE:WALL-OUTER
G1 F1800 X118.983 Y115.8 E10.58283
G1 X119.543 Y115.73 E10.59409
G1 X120.021 Y115.478 E10.60488
G1 X120.341 Y115.194 E10.61342
G1 X120.593 Y114.83 E10.62225
G1 X120.75 Y114.419 E10.63103
G1 X120.796 Y114.15 E10.63648
G1 X120.799 Y106.017 E10.79878
G1 X120.732 Y105.464 E10.8099
G1 X120.477 Y104.975 E10.8209
G1 X120.194 Y104.655 E10.82943
G1 X119.83 Y104.403 E10.83826
G1 X119.422 Y104.25 E10.84696
G1 X119.149 Y104.2 E10.8525
G1 X101.017 Y104.2 E11.21434
G1 X100.455 Y104.269 E11.22564
G1 X99.975 Y104.519 E11.23644
G1 X99.655 Y104.802 E11.24497
G1 X99.403 Y105.166 E11.2538
G1 X99.25 Y105.574 E11.2625
G1 X99.201 Y105.85 E11.26809
G1 X99.201 Y113.983 E11.43039
G1 X99.269 Y114.541 E11.44161
G1 X99.519 Y115.021 E11.45241
G1 X99.802 Y115.341 E11.46094
G1 X100.166 Y115.593 E11.46977
G1 X100.574 Y115.746 E11.47847
G1 X100.85 Y115.796 E11.48406
G0 F9000 X100.914 Y115.1
G0 X119.217 Y114.864
G0 X119.186 Y114.605
;TYPE:SKIN
G1 F1800 X118.907 Y114.64 E11.48968
G1 X100.963 Y114.636 E11.84777
G1 X100.713 Y114.557 E11.853
G1 X100.477 Y114.351 E11.85925
G1 X100.391 Y114.181 E11.86305
G1 X100.36 Y113.908 E11.86854
G1 X100.36 Y105.967 E12.02701
G1 X100.439 Y105.712 E12.03233
G1 X100.645 Y105.477 E12.03857
G1 X100.808 Y105.395 E12.04221
G1 X101.093 Y105.36 E12.04794
G1 X119.037 Y105.36 E12.40603
G1 X119.279 Y105.435 E12.41109
G1 X119.516 Y105.646 E12.41742
G1 X119.602 Y105.806 E12.42105
G1 X119.636 Y106.088 E12.42672
G1 X119.636 Y114.041 E12.58543
G1 X119.562 Y114.275 E12.59032
G1 X119.345 Y114.52 E12.59686
G1 X119.186 Y114.605 E12.60045
G0 F9000 X119.217 Y114.864
G0 X119.471 Y114.681
G0 X119.736 Y114.379
G0 X119.816 Y114.13
G0 X119.898 Y106.426
G0 X119.436 Y106.425
G1 F1800 X118.571 Y105.56 E12.62487
G0 F9000 X118.006 Y105.56
G1 F1800 X119.436 Y106.991 E12.66524
G0 F9000 X119.436 Y107.557
G1 F1800 X117.44 Y105.56 E12.72158
G0 F9000 X116.874 Y105.56
G1 F1800 X119.436 Y108.122 E12.79389
G0 F9000 X119.436 Y108.688
G1 F1800 X116.308 Y105.56 E12.88217
G0 F9000 X115.743 Y105.56
G1 F1800 X119.436 Y109.254 E12.98641
G0 F9000 X119.436 Y109.819
G1 F1800 X115.177 Y105.56 E13.1066
G0 F9000 X114.611 Y105.56
G1 F1800 X119.436 Y110.385 E13.24278
G0 F9000 X119.436 Y110.951
G1 F1800 X114.046 Y105.56 E13.39491
G0 F9000 X113.48 Y105.56
G1 F1800 X119.436 Y111.516 E13.563
G0 F9000 X119.436 Y112.082
G1 F1800 X112.914 Y105.56 E13.74706
G0 F9000 X112.349 Y105.56
G1 F1800 X119.436 Y112.648 E13.94709
G0 F9000 X119.436 Y113.213
G1 F1800 X111.783 Y105.56 E14.16307
G0 F9000 X111.217 Y105.56
G1 F1800 X119.436 Y113.779 E14.39503
G0 F9000 X119.329 Y114.238
G1 F1800 X110.652 Y105.56 E14.63993
G0 F9000 X110.086 Y105.56
G1 F1800 X118.957 Y114.432 E14.8903
G0 F9000 X118.399 Y114.44
G1 F1800 X109.52 Y105.56 E15.1409
G0 F9000 X108.955 Y105.56
G1 F1800 X117.834 Y114.44 E15.3915
G0 F9000 X117.268 Y114.44
G1 F1800 X108.389 Y105.56 E15.6421
G0 F9000 X107.823 Y105.56
G1 F1800 X116.702 Y114.44 E15.8927
G0 F9000 X116.137 Y114.44
G1 F1800 X107.257 Y105.56 E16.14331
G0 F9000 X106.692 Y105.56
G1 F1800 X115.57 Y114.439 E16.39388
G0 F9000 X115.005 Y114.439
G1 F1800 X106.126 Y105.56 E16.64446
G0 F9000 X105.56 Y105.56
G1 F1800 X114.439 Y114.439 E16.89505
G0 F9000 X113.873 Y114.439
G1 F1800 X104.995 Y105.56 E17.14562
G0 F9000 X104.429 Y105.56
G1 F1800 X113.307 Y114.439 E17.39619
G0 F9000 X112.741 Y114.438
G1 F1800 X103.863 Y105.56 E17.64675
G0 F9000 X103.298 Y105.56
G1 F1800 X112.175 Y114.438 E17.89729
G0 F9000 X111.61 Y114.438
G1 F1800 X102.732 Y105.56 E18.14784
G0 F9000 X102.166 Y105.56
G1 F1800 X111.044 Y114.438 E18.3984
G0 F9000 X110.478 Y114.438
G1 F1800 X101.601 Y105.56 E18.64894
G0 F9000 X101.048 Y105.573
G1 F1800 X109.912 Y114.437 E18.8991
G0 F9000 X109.346 Y114.437
G1 F1800 X100.665 Y105.756 E19.1441
G0 F9000 X100.56 Y106.217
G1 F1800 X108.781 Y114.437 E19.3761
G0 F9000 X108.215 Y114.437
G1 F1800 X100.56 Y106.782 E19.59214
G0 F9000 X100.56 Y107.348
G1 F1800 X107.649 Y114.437 E19.79221
G0 F9000 X107.084 Y114.437
G1 F1800 X100.56 Y107.914 E19.97632
G0 F9000 X100.56 Y108.479
G1 F1800 X106.517 Y114.437 E20.14445
