;FLAVOR:Marlin
;TIME:549
;Filament used: 0.21182m
;Layer height: 0.2
;MINX:94.549
;MINY:94.553
;MINZ:0.12
;MAXX:125.449
;MAXY:125.451
;MAXZ:8.92
;TARGET_MACHINE.NAME:Creality Ender-3 V3 SE
;Generated with Cura_SteamEngine 5.7.1
M82 ;absolute extrusion mode
M220 S100 ;Reset Feedrate
M221 S100 ;Reset Flowrate

G28 ;Home

M420 S1; Use saved mesh leveling data

G92 E0 ;Reset Extruder
G1 Z2.0 F3000 ;Move Z Axis up
G1 X-3 Y20 Z0.28 F5000.0 ;Move to start position
M190 S60 ; Set bed temperature and wait
M109 S210 ; Set hotend temperature and wait
G1 X-3 Y100.0 Z0.28 F1500.0 E15 ;Draw the first line
G1 X-2 Y100.0 Z0.28 F5000.0 ;Move to side a little
G1 X-2 Y20 Z0.28 F1500.0 E30 ;Draw the second line
G92 E0 ;Reset Extruder
G1 E-1.0000 F1800 ;Retract a bit
G1 Z2.0 F3000 ;Move Z Axis up
G1 E0.0000 F1800 

G92 E0
G92 E0
G1 F2400 E-0.8
;LAYER_COUNT:45
;LAYER:0
M107
G0 F9000 X98.76 Y99.278 Z0.12
;TYPE:SKIRT
G1 F2400 E0
G1 F1800 X99.739 Y98.338 E0.02708
G1 X100.176 Y97.97 E0.03849
G1 X101.154 Y97.238 E0.06286
G1 X101.688 Y96.885 E0.07564
G1 X102.823 Y96.228 E0.10181
G1 X103.26 Y96.01 E0.11156
G1 X103.944 Y95.693 E0.1266
G1 X104.84 Y95.336 E0.14585
G1 X106.035 Y94.99 E0.17067
G1 X106.585 Y94.865 E0.18193
G1 X107.474 Y94.704 E0.19996
G1 X108.336 Y94.619 E0.21725
G1 X109.155 Y94.57 E0.23362
G1 X109.957 Y94.553 E0.24963
G1 X110.861 Y94.569 E0.26767
G1 X111.696 Y94.616 E0.28436
G1 X112.517 Y94.712 E0.30086
G1 X113.018 Y94.789 E0.31097
G1 X113.971 Y94.981 E0.33037
G1 X114.868 Y95.244 E0.34903
G1 X115.84 Y95.613 E0.36977
G1 X116.477 Y95.884 E0.38359
G1 X117.634 Y96.474 E0.40951
G1 X118.219 Y96.82 E0.42307
G1 X119.356 Y97.593 E0.45051
G1 X119.604 Y97.786 E0.45678
G1 X120.289 Y98.365 E0.47468
G1 X120.791 Y98.827 E0.48829
G1 X121.46 Y99.5 E0.50723
G1 X121.879 Y99.986 E0.52003
G1 X122.237 Y100.429 E0.5314
G1 X122.718 Y101.07 E0.54739
G1 X122.921 Y101.365 E0.55454
G1 X123.442 Y102.199 E0.57416
G1 X123.695 Y102.647 E0.58443
G1 X124.103 Y103.453 E0.60246
G1 X124.325 Y103.975 E0.61378
G1 X124.546 Y104.536 E0.62581
G1 X124.852 Y105.428 E0.64463
G1 X125.128 Y106.585 E0.66837
G1 X125.252 Y107.269 E0.68224
G1 X125.384 Y108.259 E0.70217
G1 X125.425 Y108.972 E0.71642
G1 X125.449 Y110.018 E0.7373
G1 X125.441 Y110.772 E0.75235
G1 X125.406 Y111.509 E0.76708
G1 X125.316 Y112.473 E0.7864
G1 X125.205 Y113.134 E0.79977
G1 X125.124 Y113.535 E0.80794
G1 X124.891 Y114.479 E0.82734
G1 X124.595 Y115.346 E0.84562
G1 X124.358 Y115.952 E0.85861
G1 X123.785 Y117.186 E0.88576
G1 X123.558 Y117.602 E0.89522
G1 X122.917 Y118.636 E0.91949
G1 X122.637 Y119.036 E0.92924
G1 X122.198 Y119.622 E0.94385
G1 X121.768 Y120.143 E0.95733
G1 X121.52 Y120.424 E0.96481
G1 X120.802 Y121.166 E0.98542
G1 X120.448 Y121.498 E0.9951
G1 X119.522 Y122.274 E1.01921
G1 X119.096 Y122.592 E1.02982
G1 X118.165 Y123.216 E1.05219
G1 X117.727 Y123.476 E1.06235
G1 X116.912 Y123.914 E1.08081
G1 X116.446 Y124.138 E1.09113
G1 X115.563 Y124.517 E1.11031
G1 X115.039 Y124.699 E1.12138
G1 X114.558 Y124.852 E1.13145
G1 X113.655 Y125.096 E1.15012
G1 X112.877 Y125.243 E1.16592
G1 X112.452 Y125.306 E1.17449
G1 X111.628 Y125.396 E1.19103
G1 X110.901 Y125.436 E1.20556
G1 X109.862 Y125.451 E1.2263
G1 X109.131 Y125.435 E1.24089
G1 X108.242 Y125.384 E1.25866
G1 X107.363 Y125.285 E1.27631
G1 X107.039 Y125.234 E1.28286
G1 X106.084 Y125.037 E1.30232
G1 X105.138 Y124.756 E1.32201
G1 X104.58 Y124.561 E1.33381
G1 X103.279 Y124.01 E1.362
G1 X102.835 Y123.786 E1.37193
G1 X101.815 Y123.201 E1.39539
G1 X101.325 Y122.883 E1.40705
G1 X100.388 Y122.2 E1.43019
G1 X99.92 Y121.82 E1.44222
G1 X99.246 Y121.219 E1.46024
G1 X98.543 Y120.489 E1.48047
G1 X97.975 Y119.828 E1.49786
G1 X97.598 Y119.353 E1.50996
G1 X96.939 Y118.42 E1.53276
G1 X96.639 Y117.942 E1.54402
G1 X96.193 Y117.157 E1.56204
G1 X95.933 Y116.615 E1.57403
G1 X95.704 Y116.1 E1.58528
G1 X95.238 Y114.842 E1.61205
G1 X95.1 Y114.379 E1.62169
G1 X94.795 Y113.035 E1.6492
G1 X94.714 Y112.53 E1.6594
G1 X94.603 Y111.525 E1.67958
G1 X94.563 Y110.85 E1.69307
G1 X94.549 Y109.915 E1.71173
G1 X94.578 Y108.891 E1.73218
G1 X94.688 Y107.624 E1.75756
G1 X94.763 Y107.113 E1.76786
G1 X94.946 Y106.164 E1.78715
G1 X95.152 Y105.419 E1.80258
G1 X95.269 Y105.052 E1.81026
G1 X95.628 Y104.082 E1.8309
G1 X95.863 Y103.533 E1.84282
G1 X96.287 Y102.657 E1.86224
G1 X96.746 Y101.883 E1.8802
G1 X97.013 Y101.472 E1.88998
G1 X97.404 Y100.912 E1.90361
G1 X97.717 Y100.495 E1.91402
G1 X98.408 Y99.661 E1.93563
G1 X98.76 Y99.278 E1.94601
G0 F9000 X99.055 Y99.549
G1 F1800 X99.997 Y98.644 E1.97208
G1 X100.416 Y98.29 E1.98303
G1 X101.375 Y97.571 E2.00695
G1 X101.888 Y97.231 E2.01923
G1 X103.002 Y96.586 E2.04492
G1 X103.429 Y96.373 E2.05444
G1 X104.092 Y96.065 E2.06903
G1 X104.988 Y95.708 E2.08827
G1 X106.124 Y95.38 E2.11187
G1 X106.656 Y95.259 E2.12276
G1 X107.545 Y95.098 E2.14079
G1 X108.36 Y95.018 E2.15713
G1 X109.164 Y94.97 E2.1732
G1 X109.95 Y94.953 E2.18889
G1 X110.839 Y94.968 E2.20664
G1 X111.65 Y95.013 E2.22285
G1 X112.456 Y95.107 E2.23904
G1 X112.939 Y95.181 E2.24879
G1 X113.858 Y95.365 E2.26749
G1 X114.755 Y95.628 E2.28615
G1 X115.683 Y95.981 E2.30596
G1 X116.32 Y96.252 E2.31978
G1 X117.431 Y96.819 E2.34467
G1 X117.994 Y97.151 E2.35771
G1 X119.11 Y97.909 E2.38463
G1 X119.358 Y98.102 E2.39091
G1 X120.018 Y98.66 E2.40815
G1 X120.507 Y99.109 E2.4214
G1 X121.176 Y99.782 E2.44034
G1 X121.568 Y100.238 E2.45234
G1 X121.917 Y100.669 E2.46341
G1 X122.389 Y101.297 E2.47908
G1 X122.582 Y101.577 E2.48587
G1 X123.094 Y102.396 E2.50514
G1 X123.338 Y102.828 E2.51505
G1 X123.746 Y103.634 E2.53307
G1 X123.953 Y104.122 E2.54365
G1 X124.168 Y104.667 E2.55534
G1 X124.463 Y105.521 E2.57337
G1 X124.734 Y106.656 E2.59666
G1 X124.858 Y107.34 E2.61053
G1 X124.985 Y108.282 E2.6295
G1 X125.025 Y108.981 E2.64347
G1 X125.049 Y110.014 E2.6641
G1 X125.041 Y110.753 E2.67884
G1 X125.006 Y111.49 E2.69357
G1 X124.921 Y112.407 E2.71195
G1 X124.813 Y113.055 E2.72506
G1 X124.736 Y113.439 E2.73287
G1 X124.512 Y114.35 E2.75159
G1 X124.222 Y115.2 E2.76952
G1 X123.985 Y115.806 E2.7825
G1 X123.433 Y116.995 E2.80866
G1 X123.218 Y117.391 E2.81765
G1 X122.589 Y118.407 E2.8415
G1 X122.317 Y118.796 E2.85097
G1 X121.89 Y119.367 E2.8652
G1 X121.468 Y119.878 E2.87843
G1 X121.22 Y120.159 E2.88591
G1 X120.528 Y120.874 E2.90576
G1 X120.174 Y121.206 E2.91545
G1 X119.282 Y121.954 E2.93868
G1 X118.873 Y122.26 E2.94887
G1 X117.961 Y122.872 E2.97079
G1 X117.537 Y123.124 E2.98063
G1 X116.738 Y123.554 E2.99874
G1 X116.288 Y123.771 E3.00871
G1 X115.432 Y124.139 E3.0273
G1 X114.917 Y124.318 E3.03819
G1 X114.453 Y124.466 E3.0479
G1 X113.581 Y124.703 E3.06594
G1 X112.818 Y124.847 E3.08143
G1 X112.409 Y124.908 E3.08969
G1 X111.585 Y124.998 E3.10623
G1 X110.895 Y125.036 E3.12002
G1 X109.87 Y125.051 E3.14047
G1 X109.154 Y125.036 E3.15477
G1 X108.287 Y124.987 E3.1721
G1 X107.425 Y124.89 E3.18941
G1 X107.119 Y124.842 E3.19559
G1 X106.198 Y124.654 E3.21435
G1 X105.27 Y124.378 E3.23367
G1 X104.712 Y124.183 E3.24546
G1 X103.459 Y123.653 E3.27261
G1 X103.034 Y123.439 E3.28211
G1 X102.033 Y122.865 E3.30514
G1 X101.543 Y122.547 E3.31679
G1 X100.624 Y121.877 E3.33949
G1 X100.186 Y121.521 E3.35075
G1 X99.512 Y120.92 E3.36877
G1 X98.846 Y120.228 E3.38794
G1 X98.288 Y119.58 E3.40501
G1 X97.925 Y119.122 E3.41667
G1 X97.266 Y118.189 E3.43946
G1 X96.987 Y117.744 E3.44995
G1 X96.541 Y116.959 E3.46796
G1 X96.298 Y116.452 E3.47918
G1 X96.079 Y115.961 E3.48991
G1 X95.613 Y114.703 E3.51668
G1 X95.49 Y114.29 E3.52528
G1 X95.19 Y112.972 E3.55226
G1 X95.112 Y112.486 E3.56208
G1 X95.001 Y111.481 E3.58226
G1 X94.963 Y110.844 E3.59499
G1 X94.949 Y109.926 E3.61331
G1 X94.978 Y108.902 E3.63376
G1 X95.084 Y107.682 E3.6582
G1 X95.156 Y107.188 E3.66816
G1 X95.332 Y106.27 E3.68681
G1 X95.533 Y105.54 E3.70192
G1 X95.644 Y105.191 E3.70923
G1 X95.996 Y104.239 E3.72949
G1 X96.223 Y103.707 E3.74103
G1 X96.631 Y102.861 E3.75977
G1 X97.081 Y102.101 E3.7774
G1 X97.341 Y101.701 E3.78692
G1 X97.724 Y101.152 E3.80028
G1 X98.025 Y100.75 E3.8103
G1 X98.703 Y99.932 E3.8315
G1 X99.055 Y99.549 E3.84188
G0 F9000 X99.35 Y99.82
G1 F1800 X100.274 Y98.933 E3.86744
G1 X100.656 Y98.61 E3.87743
G1 X101.596 Y97.904 E3.90089
G1 X102.088 Y97.577 E3.91268
G1 X103.181 Y96.944 E3.93788
G1 X103.598 Y96.736 E3.94718
G1 X104.261 Y96.428 E3.96177
G1 X105.099 Y96.092 E3.97979
G1 X106.213 Y95.77 E4.00293
G1 X106.727 Y95.653 E4.01345
G1 X107.616 Y95.492 E4.03148
G1 X108.384 Y95.417 E4.04688
G1 X109.173 Y95.37 E4.06265
G1 X109.944 Y95.353 E4.07804
G1 X110.817 Y95.367 E4.09546
G1 X111.604 Y95.41 E4.11119
G1 X112.396 Y95.502 E4.1271
G1 X112.861 Y95.573 E4.13649
G1 X113.746 Y95.749 E4.1545
G1 X114.613 Y96.002 E4.17252
G1 X115.527 Y96.349 E4.19203
G1 X116.138 Y96.608 E4.20527
G1 X117.228 Y97.164 E4.22969
G1 X117.769 Y97.482 E4.24222
G1 X118.864 Y98.225 E4.26862
G1 X119.112 Y98.418 E4.2749
G1 X119.747 Y98.955 E4.29149
G1 X120.236 Y99.404 E4.30474
G1 X120.873 Y100.043 E4.32275
G1 X121.257 Y100.49 E4.33451
G1 X121.597 Y100.909 E4.34527
G1 X122.06 Y101.525 E4.36065
G1 X122.243 Y101.789 E4.36706
G1 X122.746 Y102.592 E4.38597
G1 X122.981 Y103.009 E4.39552
G1 X123.389 Y103.815 E4.41355
G1 X123.581 Y104.269 E4.42339
G1 X123.79 Y104.798 E4.43474
G1 X124.085 Y105.652 E4.45277
G1 X124.34 Y106.727 E4.47482
G1 X124.464 Y107.411 E4.48869
G1 X124.586 Y108.305 E4.5067
G1 X124.625 Y108.99 E4.52039
G1 X124.649 Y110.01 E4.54075
G1 X124.641 Y110.734 E4.5552
G1 X124.606 Y111.471 E4.56992
G1 X124.523 Y112.37 E4.58794
G1 X124.421 Y112.977 E4.60022
G1 X124.348 Y113.344 E4.60769
G1 X124.133 Y114.221 E4.62571
G1 X123.849 Y115.055 E4.64329
G1 X123.622 Y115.638 E4.65578
G1 X123.081 Y116.804 E4.68143
G1 X122.866 Y117.2 E4.69042
G1 X122.261 Y118.178 E4.71337
G1 X121.996 Y118.557 E4.7226
G1 X121.581 Y119.113 E4.73644
G1 X121.168 Y119.614 E4.7494
G1 X120.933 Y119.881 E4.7565
G1 X120.254 Y120.582 E4.77598
G1 X119.9 Y120.914 E4.78566
G1 X119.042 Y121.634 E4.80801
G1 X118.65 Y121.928 E4.81779
G1 X117.756 Y122.528 E4.83928
G1 X117.347 Y122.772 E4.84878
G1 X116.564 Y123.194 E4.86653
G1 X116.13 Y123.404 E4.87615
G1 X115.3 Y123.761 E4.89418
G1 X114.795 Y123.937 E4.90486
G1 X114.348 Y124.08 E4.91422
G1 X113.476 Y124.317 E4.93226
G1 X112.758 Y124.451 E4.94683
G1 X112.366 Y124.51 E4.95474
G1 X111.542 Y124.6 E4.97128
G1 X110.889 Y124.636 E4.98433
G1 X109.878 Y124.651 E5.00451
G1 X109.176 Y124.637 E5.01852
G1 X108.332 Y124.59 E5.03539
G1 X107.487 Y124.495 E5.05236
G1 X107.198 Y124.45 E5.0582
G1 X106.312 Y124.271 E5.07624
G1 X105.402 Y124 E5.09519
G1 X104.844 Y123.805 E5.10698
G1 X103.638 Y123.295 E5.13311
G1 X103.233 Y123.092 E5.14215
G1 X102.251 Y122.529 E5.16474
G1 X101.761 Y122.211 E5.1764
G1 X100.876 Y121.567 E5.19824
G1 X100.452 Y121.222 E5.20915
G1 X99.778 Y120.621 E5.22717
G1 X99.149 Y119.967 E5.24528
G1 X98.601 Y119.331 E5.26203
G1 X98.252 Y118.891 E5.27324
G1 X97.605 Y117.976 E5.2956
G1 X97.335 Y117.546 E5.30574
G1 X96.889 Y116.761 E5.32375
G1 X96.663 Y116.289 E5.3342
G1 X96.454 Y115.822 E5.34441
G1 X95.988 Y114.564 E5.37118
G1 X95.88 Y114.201 E5.37874
G1 X95.585 Y112.909 E5.40518
G1 X95.51 Y112.442 E5.41462
G1 X95.399 Y111.437 E5.4348
G1 X95.363 Y110.838 E5.44678
G1 X95.349 Y109.937 E5.46476
G1 X95.378 Y108.913 E5.4852
G1 X95.48 Y107.739 E5.50872
G1 X95.549 Y107.263 E5.51832
G1 X95.718 Y106.376 E5.53634
G1 X95.915 Y105.66 E5.55116
G1 X96.019 Y105.33 E5.55806
G1 X96.364 Y104.396 E5.57793
G1 X96.584 Y103.88 E5.58912
G1 X96.975 Y103.065 E5.60716
G1 X97.416 Y102.319 E5.62446
G1 X97.669 Y101.93 E5.63372
G1 X98.045 Y101.391 E5.64683
G1 X98.333 Y101.005 E5.65644
G1 X98.998 Y100.203 E5.67723
G1 X99.35 Y99.82 E5.68762
G1 F2400 E4.88762
;MESH:dado9mm.stl
G0 F9000 X105.802 Y107.708
G0 X106.753 Y108.229
G0 X106.869 Y108.619
G0 X107.16 Y108.945
G0 X110.169 Y113.067
;TYPE:WALL-INNER
G1 F2400 E5.68762
G1 F1272.1 X110.449 Y113.036 E5.69557
G1 X110.271 Y112.735 E5.70545
G1 F1403.5 X110.216 Y112.205 E5.71908
G1 F1565.2 X110.224 Y111.864 E5.72691
G1 F1651.4 X110.364 Y111.346 E5.73858
G1 F1769 X110.72 Y110.817 E5.75153
G1 F1739.1 X111.174 Y110.451 E5.76357
G1 F1621.6 X111.824 Y110.225 E5.77882
G1 F1475.4 X112.608 Y110.243 E5.79791
G1 F1318.7 X113.046 Y110.434 E5.81093
G1 F1250 X113.065 Y109.879 E5.82689
G1 X113.027 Y109.558 E5.83617
G1 X112.729 Y109.722 E5.84595
G1 F1387.3 X112.236 Y109.778 E5.8588
G1 F1610.7 X111.735 Y109.766 E5.86997
G1 F1722.5 X111.114 Y109.521 E5.88389
G1 F1791 X110.654 Y109.124 E5.89608
G1 F1756.1 X110.347 Y108.617 E5.9082
G1 F1670.5 X110.207 Y108.059 E5.92057
G1 F1525.4 X110.243 Y107.312 E5.93819
G1 F1350.8 X110.442 Y106.956 E5.94903
G1 F1276.6 X110.031 Y106.921 E5.96064
G1 X109.559 Y106.999 E5.9741
G1 X109.724 Y107.313 E5.98408
G1 F1428.6 X109.774 Y107.805 E5.99651
G1 F1625.3 X109.768 Y108.06 E6.00215
G1 F1710.2 X109.699 Y108.42 E6.00985
G1 F1800 X109.526 Y108.878 E6.01962
G1 X109.156 Y109.318 E6.03109
G1 F1769 X108.628 Y109.65 E6.04376
G1 F1555.1 X108.047 Y109.793 E6.05758
G1 F1330.9 X107.323 Y109.741 E6.07717
G1 F1265.4 X106.952 Y109.564 E6.08884
G1 X106.941 Y110.18 E6.10633
G1 X106.969 Y110.444 E6.11387
G1 F1330.9 X107.385 Y110.247 E6.12629
G1 F1484.5 X108.131 Y110.227 E6.14435
G1 F1651.4 X108.636 Y110.366 E6.15574
G1 F1769 X109.189 Y110.735 E6.16924
G1 F1800 X109.404 Y110.971 E6.17561
G1 F1786.6 X109.69 Y111.516 E6.18798
G1 F1666.7 X109.769 Y111.828 E6.19492
G1 F1484.5 X109.753 Y112.65 E6.21481
G1 F1335.8 X109.568 Y113.029 E6.22616
G1 F1272.1 X109.78 Y113.069 E6.23225
G1 X110.169 Y113.067 E6.24323
G0 F9000 X109.164 Y113.182
G0 X108.924 Y113.37
G1 F1800 X109.236 Y113.47 E6.24977
G1 X109.427 Y113.494 E6.25361
G1 X109.736 Y113.552 E6.25989
G1 X110.186 Y113.551 E6.26887
G1 X110.631 Y113.501 E6.2778
G1 X110.975 Y113.399 E6.28496
G1 X111.314 Y113.265 E6.29224
G1 X110.979 Y112.977 E6.30105
G1 X110.721 Y112.552 E6.31098
G1 X110.625 Y112.056 E6.32106
G1 X110.725 Y111.527 E6.3318
G1 X111.016 Y111.09 E6.34228
G1 X111.394 Y110.797 E6.35182
G1 X111.869 Y110.64 E6.36181
G1 X112.4 Y110.682 E6.37244
G1 X112.844 Y110.887 E6.3822
G1 X113.1 Y111.125 E6.38917
G1 X113.265 Y111.369 E6.39505
G1 X113.319 Y111.24 E6.39784
G1 X113.481 Y110.629 E6.41045
G1 X113.538 Y110.355 E6.41604
G1 X113.554 Y109.858 E6.42596
G1 X113.493 Y109.347 E6.43623
G1 X113.366 Y108.873 E6.44603
G1 X113.261 Y108.641 E6.45111
G1 X113.091 Y108.886 E6.45706
G1 X112.92 Y109.048 E6.46176
G1 X112.632 Y109.23 E6.46856
G1 X112.222 Y109.35 E6.47708
G1 X111.759 Y109.338 E6.48633
G1 X111.31 Y109.163 E6.49594
G1 X110.965 Y108.867 E6.50501
G1 X110.717 Y108.458 E6.51456
G1 X110.613 Y107.985 E6.52422
G1 X110.688 Y107.509 E6.53384
G1 X110.871 Y107.174 E6.54146
G1 X111.149 Y106.878 E6.54956
G1 X111.342 Y106.751 E6.55417
G1 X111.102 Y106.646 E6.5594
G1 X110.561 Y106.485 E6.57066
G1 X110 Y106.434 E6.58191
G1 X109.74 Y106.484 E6.58719
G1 X109.296 Y106.507 E6.59606
G1 X108.832 Y106.674 E6.6059
G1 X108.673 Y106.762 E6.60953
G1 X109.03 Y107.05 E6.61868
G1 X109.263 Y107.442 E6.62778
G1 X109.354 Y107.849 E6.63611
G1 X109.33 Y108.269 E6.6445
G1 X109.172 Y108.687 E6.65342
G1 X108.887 Y109.016 E6.66211
G1 X108.458 Y109.284 E6.6722
G1 X107.964 Y109.366 E6.68219
G1 X107.485 Y109.291 E6.69187
G1 X107.054 Y109.071 E6.70153
G1 X106.732 Y108.708 E6.71121
G1 X106.59 Y108.968 E6.71712
G1 X106.505 Y109.35 E6.72493
G1 X106.464 Y109.744 E6.73284
G1 X106.457 Y110.201 E6.74196
G1 X106.501 Y110.632 E6.7506
G1 X106.578 Y110.984 E6.75779
G1 X106.747 Y111.326 E6.76541
G1 X106.941 Y111.062 E6.77194
G1 X107.249 Y110.82 E6.77976
G1 X107.641 Y110.681 E6.78806
G1 X108.026 Y110.642 E6.79578
G1 X108.454 Y110.726 E6.80449
G1 X108.939 Y111.047 E6.81609
G1 X109.068 Y111.189 E6.81992
G1 X109.343 Y111.717 E6.8318
G1 X109.328 Y112.302 E6.84348
G1 X109.287 Y112.505 E6.84761
G1 X109.12 Y112.847 E6.85521
G1 X108.877 Y113.116 E6.86244
G1 X108.656 Y113.26 E6.86771
G1 X108.924 Y113.37 E6.87349
G0 F9000 X109.699 Y113.952
;TYPE:WALL-OUTER
G1 F1800 X110.208 Y113.951 E6.88365
G1 X110.711 Y113.895 E6.89375
G1 X111.13 Y113.77 E6.90247
G1 X111.273 Y113.696 E6.90569
G1 X111.537 Y113.616 E6.91119
G1 X111.877 Y113.463 E6.91863
G1 X112.025 Y113.327 E6.92264
G1 X112.222 Y113.243 E6.92692
G1 F1751.8 X112.567 Y112.966 E6.93599
G1 F1730.8 X112.224 Y113.04 E6.94327
