;FLAVOR:Marlin
;TIME:369
;Filament used: 0.345735m
;Layer height: 0.2
;MINX:89.514
;MINY:89.511
;MINZ:0.12
;MAXX:130.49
;MAXY:130.489
;MAXZ:2.92
;TARGET_MACHINE.NAME:Creality Ender-3 V3 SE
;Generated with Cura_SteamEngine 5.7.1
M82 ;absolute extrusion mode
M220 S100 ;Reset Feedrate
M221 S100 ;Reset Flowrate

G28 ;Home

M420 S1; Use saved mesh leveling data

G92 E0 ;Reset Extruder
G1 Z2.0 F3000 ;Move Z Axis up
G1 X-3 Y20 Z0.28 F5000.0 ;Move to start position
M190 S60 ; Set bed temperature and wait
M109 S210 ; Set hotend temperature and wait
G1 X-3 Y100.0 Z0.28 F1500.0 E15 ;Draw the first line
G1 X-2 Y100.0 Z0.28 F5000.0 ;Move to side a little
G1 X-2 Y20 Z0.28 F1500.0 E30 ;Draw the second line
G92 E0 ;Reset Extruder
G1 E-1.0000 F1800 ;Retract a bit
G1 Z2.0 F3000 ;Move Z Axis up
G1 E0.0000 F1800 

G92 E0
G92 E0
G1 F2400 E-0.8
;LAYER_COUNT:15
;LAYER:0
M107
G0 F9000 X95.497 Y95.533 Z0.12
;TYPE:SKIRT
G1 F2400 E0
G1 F1800 X95.884 Y95.155 E0.0108
G1 X96.362 Y94.714 E0.02377
G1 X96.863 Y94.281 E0.03699
G1 X97.385 Y93.86 E0.05037
G1 X97.828 Y93.523 E0.06148
G1 X98.323 Y93.169 E0.07362
G1 X98.847 Y92.817 E0.08622
G1 X99.371 Y92.487 E0.09858
G1 X99.787 Y92.241 E0.10822
G1 X100.281 Y91.965 E0.11952
G1 X100.782 Y91.704 E0.13079
G1 X101.305 Y91.451 E0.14238
G1 X101.798 Y91.227 E0.15319
G1 X102.725 Y90.847 E0.17318
G1 X103.417 Y90.601 E0.18784
G1 X104.141 Y90.37 E0.20301
G1 X104.742 Y90.199 E0.21548
G1 X105.221 Y90.078 E0.22533
G1 X105.765 Y89.955 E0.23646
G1 X106.271 Y89.855 E0.24676
G1 X107.005 Y89.732 E0.26161
G1 X108.044 Y89.607 E0.28249
G1 X108.713 Y89.553 E0.29589
G1 X109.398 Y89.521 E0.30957
G1 X110.135 Y89.511 E0.32428
G1 X110.633 Y89.521 E0.33422
G1 X111.29 Y89.553 E0.34735
G1 X111.799 Y89.594 E0.35754
G1 X112.607 Y89.68 E0.37375
G1 X113.442 Y89.804 E0.3906
G1 X114.105 Y89.928 E0.40406
G1 X114.784 Y90.079 E0.41794
G1 X115.429 Y90.245 E0.43123
G1 X116.078 Y90.434 E0.44472
G1 X116.59 Y90.6 E0.45546
G1 X117.131 Y90.793 E0.46693
G1 X117.638 Y90.988 E0.47777
G1 X118.54 Y91.375 E0.49735
G1 X119.026 Y91.606 E0.50809
G1 X119.849 Y92.032 E0.52659
G1 X120.458 Y92.381 E0.54059
G1 X120.897 Y92.65 E0.55087
G1 X121.405 Y92.981 E0.56297
G1 X121.93 Y93.344 E0.57571
G1 X122.437 Y93.716 E0.58825
G1 X122.83 Y94.025 E0.59823
G1 X123.285 Y94.402 E0.61002
G1 X123.756 Y94.816 E0.62254
G1 X124.255 Y95.283 E0.63618
G1 X124.677 Y95.703 E0.64806
G1 X125.05 Y96.096 E0.65887
G1 X125.359 Y96.438 E0.66807
G1 X125.734 Y96.876 E0.67957
G1 X126.099 Y97.328 E0.69117
G1 X126.477 Y97.824 E0.70361
G1 X126.836 Y98.325 E0.71591
G1 X127.197 Y98.862 E0.72883
G1 X127.514 Y99.369 E0.74076
G1 X127.901 Y100.038 E0.75618
G1 X128.289 Y100.769 E0.7727
G1 X128.581 Y101.363 E0.78591
G1 X128.742 Y101.717 E0.79367
G1 X128.971 Y102.265 E0.80552
G1 X129.239 Y102.959 E0.82037
G1 X129.462 Y103.593 E0.83378
G1 X129.617 Y104.08 E0.84398
G1 X129.773 Y104.631 E0.85541
G1 X129.916 Y105.189 E0.8669
G1 X130.061 Y105.836 E0.88013
G1 X130.182 Y106.468 E0.89297
G1 X130.281 Y107.077 E0.90529
G1 X130.348 Y107.593 E0.91567
G1 X130.413 Y108.24 E0.92865
G1 X130.46 Y108.906 E0.94197
G1 X130.485 Y109.543 E0.95469
G1 X130.49 Y110.078 E0.96537
G1 X130.476 Y110.708 E0.97794
G1 X130.445 Y111.333 E0.99043
G1 X130.4 Y111.913 E1.00204
G1 X130.35 Y112.391 E1.01163
G1 X130.275 Y112.952 E1.02293
G1 X130.18 Y113.549 E1.03499
G1 X130.045 Y114.24 E1.04904
G1 X129.897 Y114.884 E1.06223
G1 X129.741 Y115.488 E1.07468
G1 X129.601 Y115.967 E1.08464
G1 X129.416 Y116.538 E1.09661
G1 X129.199 Y117.153 E1.10963
G1 X128.956 Y117.777 E1.12299
G1 X128.72 Y118.33 E1.13499
G1 X128.442 Y118.926 E1.14812
G1 X128.172 Y119.464 E1.16013
G1 X127.875 Y120.013 E1.17258
G1 X127.338 Y120.917 E1.19357
G1 X127.053 Y121.358 E1.20405
G1 X126.676 Y121.902 E1.21725
G1 X126.286 Y122.431 E1.23037
G1 X125.85 Y122.982 E1.24439
G1 X125.417 Y123.494 E1.25777
G1 X124.928 Y124.034 E1.27231
G1 X124.485 Y124.49 E1.285
G1 X124.065 Y124.897 E1.29667
G1 X123.675 Y125.256 E1.30725
G1 X123.237 Y125.64 E1.31887
G1 X122.85 Y125.958 E1.32887
G1 X122.366 Y126.334 E1.3411
G1 X121.83 Y126.726 E1.35435
G1 X121.261 Y127.114 E1.36809
G1 X120.745 Y127.444 E1.38032
G1 X120.198 Y127.769 E1.39302
G1 X119.611 Y128.094 E1.40641
G1 X118.94 Y128.437 E1.42144
G1 X118.446 Y128.667 E1.43232
G1 X117.945 Y128.885 E1.44322
G1 X117.376 Y129.115 E1.45547
G1 X116.815 Y129.324 E1.46742
G1 X116.298 Y129.499 E1.47831
G1 X115.452 Y129.754 E1.49594
G1 X114.869 Y129.901 E1.50794
G1 X114.143 Y130.064 E1.52279
G1 X113.459 Y130.193 E1.53668
G1 X112.83 Y130.291 E1.54938
G1 X112.06 Y130.384 E1.56486
G1 X111.322 Y130.443 E1.57964
G1 X110.743 Y130.475 E1.59121
G1 X109.78 Y130.489 E1.61043
G1 X109.25 Y130.476 E1.62101
G1 X108.526 Y130.439 E1.63547
G1 X107.546 Y130.341 E1.65513
G1 X106.998 Y130.264 E1.66617
G1 X106.265 Y130.141 E1.681
G1 X105.39 Y129.964 E1.69882
G1 X104.487 Y129.733 E1.71742
G1 X103.909 Y129.56 E1.72946
G1 X103.212 Y129.328 E1.74412
G1 X102.653 Y129.124 E1.756
G1 X102.24 Y128.96 E1.76486
G1 X101.678 Y128.719 E1.77707
G1 X101.009 Y128.406 E1.79181
G1 X100.293 Y128.04 E1.80785
G1 X99.693 Y127.703 E1.82159
G1 X99.215 Y127.418 E1.83269
G1 X98.852 Y127.188 E1.84127
G1 X98.364 Y126.86 E1.853
G1 X97.85 Y126.494 E1.86559
G1 X97.362 Y126.124 E1.87782
G1 X96.943 Y125.787 E1.88855
G1 X96.39 Y125.309 E1.90313
G1 X95.744 Y124.707 E1.92075
G1 X95.237 Y124.202 E1.93503
G1 X94.888 Y123.832 E1.94518
G1 X94.468 Y123.355 E1.95787
G1 X94.071 Y122.878 E1.97025
G1 X93.477 Y122.11 E1.98963
G1 X93.151 Y121.651 E2.00086
G1 X92.814 Y121.149 E2.01293
G1 X92.436 Y120.538 E2.02727
G1 X92.076 Y119.915 E2.04163
G1 X91.77 Y119.347 E2.0545
G1 X91.561 Y118.928 E2.06385
G1 X91.32 Y118.408 E2.07528
G1 X91.081 Y117.855 E2.08731
G1 X90.826 Y117.207 E2.1012
G1 X90.587 Y116.536 E2.11542
G1 X90.376 Y115.878 E2.12921
G1 X90.222 Y115.333 E2.14051
G1 X90.085 Y114.804 E2.15141
G1 X89.982 Y114.351 E2.16068
G1 X89.852 Y113.699 E2.17395
G1 X89.731 Y112.964 E2.18882
G1 X89.643 Y112.28 E2.20258
G1 X89.588 Y111.723 E2.21375
G1 X89.544 Y111.11 E2.22601
G1 X89.521 Y110.524 E2.23772
G1 X89.514 Y109.931 E2.24955
G1 X89.521 Y109.448 E2.25919
G1 X89.544 Y108.916 E2.26982
G1 X89.58 Y108.374 E2.28066
G1 X89.643 Y107.715 E2.29387
G1 X89.728 Y107.059 E2.30707
G1 X89.838 Y106.379 E2.32082
G1 X89.976 Y105.679 E2.33505
G1 X90.131 Y105.005 E2.34886
G1 X90.394 Y104.066 E2.36832
G1 X90.635 Y103.322 E2.38392
G1 X90.897 Y102.599 E2.39927
G1 X91.1 Y102.098 E2.41006
G1 X91.306 Y101.622 E2.42041
G1 X91.548 Y101.1 E2.43189
G1 X91.87 Y100.461 E2.44617
G1 X92.409 Y99.503 E2.4681
G1 X92.755 Y98.939 E2.48131
G1 X93.209 Y98.26 E2.49761
G1 X93.579 Y97.751 E2.51017
G1 X94.149 Y97.02 E2.52867
G1 X94.576 Y96.52 E2.54179
G1 X95.053 Y95.994 E2.55596
G1 X95.497 Y95.533 E2.56873
G0 F9000 X95.776 Y95.819
G1 F1800 X96.155 Y95.449 E2.5793
G1 X96.623 Y95.017 E2.59201
G1 X97.115 Y94.592 E2.60498
G1 X97.627 Y94.178 E2.61812
G1 X98.061 Y93.848 E2.629
G1 X98.546 Y93.501 E2.64091
G1 X99.061 Y93.155 E2.65329
G1 X99.574 Y92.831 E2.6654
G1 X99.982 Y92.59 E2.67485
G1 X100.466 Y92.32 E2.68591
G1 X100.957 Y92.064 E2.69696
G1 X101.47 Y91.815 E2.70834
G1 X101.95 Y91.597 E2.71886
G1 X102.859 Y91.224 E2.73847
G1 X103.539 Y90.982 E2.75287
G1 X104.251 Y90.755 E2.76779
G1 X104.84 Y90.587 E2.78001
G1 X105.31 Y90.468 E2.78969
G1 X105.843 Y90.347 E2.80059
G1 X106.337 Y90.249 E2.81064
G1 X107.053 Y90.129 E2.82513
G1 X108.076 Y90.006 E2.84569
G1 X108.732 Y89.953 E2.85883
G1 X109.404 Y89.921 E2.87225
G1 X110.127 Y89.911 E2.88668
G1 X110.614 Y89.921 E2.8964
G1 X111.258 Y89.952 E2.90927
G1 X111.757 Y89.992 E2.91926
G1 X112.549 Y90.076 E2.93515
G1 X113.369 Y90.197 E2.95169
G1 X114.018 Y90.318 E2.96487
G1 X114.684 Y90.466 E2.97848
G1 X115.317 Y90.629 E2.99153
G1 X115.954 Y90.814 E3.00477
G1 X116.456 Y90.977 E3.0153
G1 X116.987 Y91.166 E3.02655
G1 X117.48 Y91.356 E3.03709
G1 X118.382 Y91.743 E3.05668
G1 X118.842 Y91.961 E3.06684
G1 X119.65 Y92.379 E3.08499
G1 X120.249 Y92.722 E3.09877
G1 X120.679 Y92.985 E3.10882
G1 X121.178 Y93.31 E3.12071
G1 X121.693 Y93.666 E3.1332
G1 X122.19 Y94.031 E3.14551
G1 X122.575 Y94.333 E3.15527
G1 X123.021 Y94.702 E3.16682
G1 X123.483 Y95.108 E3.1791
G1 X123.973 Y95.567 E3.1925
G1 X124.387 Y95.979 E3.20415
G1 X124.753 Y96.364 E3.21475
G1 X125.055 Y96.698 E3.22374
G1 X125.423 Y97.127 E3.23502
G1 X125.781 Y97.57 E3.24638
G1 X126.152 Y98.057 E3.2586
G1 X126.504 Y98.548 E3.27066
G1 X126.858 Y99.074 E3.28331
G1 X127.168 Y99.569 E3.29497
G1 X127.548 Y100.226 E3.31011
G1 X127.93 Y100.945 E3.32636
G1 X128.217 Y101.529 E3.33935
G1 X128.373 Y101.872 E3.34687
G1 X128.598 Y102.409 E3.35849
G1 X128.862 Y103.092 E3.3731
G1 X129.081 Y103.714 E3.38626
G1 X129.232 Y104.19 E3.39622
G1 X129.386 Y104.731 E3.40745
G1 X129.526 Y105.276 E3.41868
G1 X129.668 Y105.911 E3.43166
G1 X129.787 Y106.532 E3.44428
G1 X129.884 Y107.129 E3.45635
G1 X129.95 Y107.633 E3.46649
G1 X130.014 Y108.268 E3.47923
G1 X130.06 Y108.922 E3.49231
G1 X130.085 Y109.547 E3.5048
G1 X130.09 Y110.07 E3.51523
G1 X130.077 Y110.688 E3.52757
G1 X130.046 Y111.302 E3.53984
G1 X130.002 Y111.871 E3.55123
G1 X129.953 Y112.338 E3.5606
G1 X129.88 Y112.889 E3.57169
G1 X129.787 Y113.473 E3.58349
G1 X129.655 Y114.151 E3.59728
G1 X129.51 Y114.784 E3.61023
G1 X129.357 Y115.376 E3.62244
G1 X129.221 Y115.844 E3.63216
G1 X129.039 Y116.405 E3.64393
G1 X128.826 Y117.008 E3.65669
G1 X128.588 Y117.62 E3.6698
G1 X128.357 Y118.161 E3.68154
G1 X128.084 Y118.747 E3.69444
G1 X127.82 Y119.274 E3.7062
G1 X127.531 Y119.809 E3.71834
G1 X127.002 Y120.7 E3.73902
G1 X126.724 Y121.13 E3.74923
G1 X126.354 Y121.665 E3.76221
G1 X125.972 Y122.183 E3.77506
G1 X125.544 Y122.724 E3.78882
G1 X125.12 Y123.226 E3.80194
G1 X124.641 Y123.755 E3.81618
G1 X124.206 Y124.203 E3.82864
G1 X123.794 Y124.603 E3.8401
G1 X123.412 Y124.955 E3.85047
G1 X122.982 Y125.331 E3.86187
G1 X122.605 Y125.642 E3.87162
G1 X122.13 Y126.011 E3.88362
G1 X121.604 Y126.396 E3.89663
G1 X121.046 Y126.777 E3.91011
G1 X120.54 Y127.1 E3.92209
G1 X120.004 Y127.419 E3.93454
G1 X119.429 Y127.738 E3.94766
G1 X118.771 Y128.074 E3.96241
G1 X118.286 Y128.3 E3.97309
G1 X117.795 Y128.514 E3.98377
G1 X117.237 Y128.74 E3.99579
G1 X116.686 Y128.945 E4.00752
G1 X116.183 Y129.116 E4.01812
G1 X115.354 Y129.366 E4.0354
G1 X114.781 Y129.511 E4.0472
G1 X114.069 Y129.671 E4.06176
G1 X113.397 Y129.798 E4.07541
G1 X112.782 Y129.894 E4.08783
G1 X112.028 Y129.985 E4.10299
G1 X111.3 Y130.044 E4.11756
G1 X110.737 Y130.075 E4.12881
G1 X109.789 Y130.089 E4.14773
G1 X109.27 Y130.077 E4.15809
G1 X108.566 Y130.041 E4.17216
G1 X107.601 Y129.945 E4.19151
G1 X107.064 Y129.87 E4.20233
G1 X106.344 Y129.749 E4.2169
G1 X105.489 Y129.576 E4.23431
G1 X104.602 Y129.35 E4.25258
G1 X104.035 Y129.18 E4.26439
G1 X103.349 Y128.952 E4.27882
G1 X102.801 Y128.752 E4.29046
G1 X102.398 Y128.592 E4.29911
G1 X101.836 Y128.351 E4.31132
G1 X101.191 Y128.05 E4.32552
G1 X100.489 Y127.691 E4.34125
G1 X99.898 Y127.359 E4.35478
G1 X99.429 Y127.08 E4.36567
G1 X99.075 Y126.856 E4.37403
G1 X98.596 Y126.534 E4.38555
G1 X98.092 Y126.175 E4.3979
G1 X97.613 Y125.812 E4.40989
G1 X97.205 Y125.484 E4.42034
G1 X96.652 Y125.006 E4.43493
G1 X96.026 Y124.424 E4.45198
G1 X95.528 Y123.928 E4.46601
G1 X95.188 Y123.567 E4.47591
G1 X94.775 Y123.099 E4.48836
G1 X94.387 Y122.633 E4.50046
G1 X93.803 Y121.878 E4.51951
G1 X93.483 Y121.428 E4.53053
G1 X93.154 Y120.938 E4.54231
G1 X92.782 Y120.338 E4.5564
G1 X92.428 Y119.725 E4.57052
G1 X92.128 Y119.168 E4.58315
G1 X91.924 Y118.759 E4.59227
G1 X91.687 Y118.249 E4.60349
G1 X91.453 Y117.708 E4.61526
G1 X91.203 Y117.073 E4.62888
G1 X90.968 Y116.414 E4.64284
G1 X90.761 Y115.769 E4.65636
G1 X90.609 Y115.233 E4.66747
G1 X90.475 Y114.715 E4.67815
G1 X90.374 Y114.273 E4.6872
G1 X90.247 Y113.634 E4.7002
G1 X90.128 Y112.913 E4.71478
G1 X90.041 Y112.241 E4.72831
G1 X89.987 Y111.694 E4.73928
G1 X89.944 Y111.094 E4.75128
G1 X89.921 Y110.519 E4.76276
G1 X89.914 Y109.937 E4.77438
G1 X89.921 Y109.465 E4.7838
G1 X89.943 Y108.942 E4.79425
G1 X89.978 Y108.412 E4.80485
G1 X90.04 Y107.766 E4.8178
G1 X90.123 Y107.123 E4.83073
G1 X90.231 Y106.456 E4.84422
G1 X90.366 Y105.768 E4.85821
G1 X90.516 Y105.113 E4.87162
G1 X90.775 Y104.189 E4.89077
G1 X91.011 Y103.458 E4.9061
G1 X91.268 Y102.749 E4.92115
G1 X91.467 Y102.257 E4.93174
G1 X91.669 Y101.79 E4.94189
G1 X91.905 Y101.28 E4.95311
G1 X92.221 Y100.653 E4.96712
G1 X92.49 Y100.162 E4.97829
G1 X92.75 Y99.712 E4.98866
G1 X93.088 Y99.161 E5.00156
G1 X93.533 Y98.495 E5.01755
G1 X93.894 Y97.997 E5.02982
G1 X94.453 Y97.28 E5.04797
G1 X94.872 Y96.789 E5.06085
G1 X95.342 Y96.271 E5.07481
G1 X95.776 Y95.819 E5.08731
G0 F9000 X96.056 Y96.105
G1 F1800 X96.426 Y95.743 E5.09764
G1 X96.885 Y95.32 E5.1101
G1 X97.367 Y94.903 E5.12282
G1 X97.869 Y94.496 E5.13571
G1 X98.294 Y94.173 E5.14637
G1 X98.769 Y93.833 E5.15802
G1 X99.274 Y93.493 E5.17017
G1 X99.778 Y93.175 E5.18206
G1 X100.177 Y92.939 E5.19132
G1 X100.651 Y92.675 E5.20214
G1 X101.132 Y92.424 E5.21297
G1 X101.635 Y92.179 E5.22414
G1 X102.102 Y91.967 E5.23437
G1 X102.994 Y91.601 E5.25361
G1 X103.66 Y91.363 E5.26773
G1 X104.361 Y91.14 E5.28241
G1 X104.939 Y90.975 E5.2944
G1 X105.399 Y90.858 E5.30387
G1 X105.921 Y90.739 E5.31456
G1 X106.403 Y90.643 E5.32436
G1 X107.101 Y90.526 E5.33849
G1 X108.108 Y90.405 E5.35873
G1 X108.751 Y90.353 E5.3716
G1 X109.41 Y90.321 E5.38477
G1 X110.119 Y90.311 E5.39892
G1 X110.595 Y90.321 E5.40842
G1 X111.226 Y90.351 E5.42103
G1 X111.715 Y90.39 E5.43082
G1 X112.491 Y90.472 E5.44639
G1 X113.295 Y90.59 E5.46261
G1 X113.931 Y90.709 E5.47552
G1 X114.585 Y90.854 E5.48889
G1 X115.206 Y91.013 E5.50168
G1 X115.83 Y91.194 E5.51464
G1 X116.322 Y91.354 E5.52497
G1 X116.843 Y91.539 E5.536
G1 X117.322 Y91.724 E5.54625
G1 X118.211 Y92.105 E5.56555
G1 X118.658 Y92.316 E5.57541
G1 X119.451 Y92.726 E5.59323
G1 X120.041 Y93.064 E5.6068
G1 X120.461 Y93.32 E5.61661
G1 X120.951 Y93.639 E5.62828
G1 X121.456 Y93.988 E5.64053
G1 X121.943 Y94.346 E5.6526
G1 X122.32 Y94.641 E5.66215
G1 X122.757 Y95.003 E5.67347
G1 X123.21 Y95.4 E5.68549
G1 X123.691 Y95.85 E5.69864
G1 X124.097 Y96.255 E5.71008
G1 X124.456 Y96.632 E5.72047
G1 X124.751 Y96.958 E5.72924
G1 X125.112 Y97.379 E5.74031
G1 X125.463 Y97.812 E5.75144
G1 X125.827 Y98.29 E5.76343
G1 X126.172 Y98.771 E5.77524
G1 X126.519 Y99.287 E5.78765
G1 X126.822 Y99.769 E5.79901
G1 X127.195 Y100.414 E5.81388
G1 X127.571 Y101.122 E5.82988
G1 X127.853 Y101.694 E5.8426
G1 X128.004 Y102.027 E5.8499
G1 X128.225 Y102.554 E5.8613
G1 X128.485 Y103.225 E5.87566
G1 X128.7 Y103.835 E5.88857
G1 X128.847 Y104.3 E5.8983
G1 X128.999 Y104.831 E5.90933
G1 X129.136 Y105.363 E5.92029
G1 X129.275 Y105.986 E5.93303
G1 X129.392 Y106.596 E5.94542
G1 X129.487 Y107.181 E5.95725
G1 X129.552 Y107.673 E5.96715
G1 X129.615 Y108.296 E5.97965
G1 X129.66 Y108.938 E5.99249
G1 X129.685 Y109.551 E6.00474
G1 X129.69 Y110.061 E6.01491
G1 X129.677 Y110.668 E6.02703
G1 X129.647 Y111.271 E6.03908
G1 X129.604 Y111.829 E6.05025
G1 X129.556 Y112.286 E6.05942
G1 X129.485 Y112.826 E6.07029
G1 X129.394 Y113.397 E6.08182
G1 X129.265 Y114.062 E6.09534
G1 X129.123 Y114.684 E6.10807
G1 X128.973 Y115.264 E6.12003
G1 X128.84 Y115.721 E6.12953
G1 X128.662 Y116.272 E6.14108
G1 X128.453 Y116.863 E6.15359
G1 X128.22 Y117.463 E6.16644
G1 X127.994 Y117.993 E6.17794
G1 X127.727 Y118.568 E6.19059
G1 X127.468 Y119.084 E6.20211
G1 X127.185 Y119.609 E6.21401
G1 X126.928 Y120.054 E6.22427
G1 X126.666 Y120.483 E6.2343
G1 X126.395 Y120.903 E6.24427
G1 X126.032 Y121.428 E6.25701
G1 X125.658 Y121.935 E6.26958
G1 X125.239 Y122.466 E6.28308
G1 X124.823 Y122.958 E6.29594
G1 X124.354 Y123.476 E6.30988
G1 X123.927 Y123.916 E6.32212
G1 X123.523 Y124.309 E6.33337
G1 X123.149 Y124.654 E6.34352
G1 X122.727 Y125.023 E6.35471
G1 X122.36 Y125.326 E6.36421
G1 X121.894 Y125.688 E6.37598
G1 X121.378 Y126.066 E6.38875
G1 X120.831 Y126.44 E6.40197
G1 X120.335 Y126.756 E6.41371
G1 X119.81 Y127.069 E6.4259
G1 X119.247 Y127.382 E6.43876
G1 X118.602 Y127.711 E6.45321
G1 X118.126 Y127.933 E6.46369
G1 X117.645 Y128.143 E6.47416
G1 X117.097 Y128.365 E6.48596
G1 X116.557 Y128.566 E6.49746
G1 X116.067 Y128.733 E6.50779
G1 X115.256 Y128.978 E6.5247
G1 X114.693 Y129.121 E6.53629
